
(Makerbot Industries)
(This file contains digital fabrication directives in gcode format)
(For your 3D printer)
(http://wiki.makerbot.com/gcode)
(* Generated by Miracle-Grue v 0.04 alpha)
(* 2012-8-21 19:0:36)
(* /Applications/ReplicatorG.app/Contents/Resources/examples/20mm_Calibration_Box.stl)
(* 2 extruder)
(* Extrude infills: 1)
(* Extrude insets: 1)
(* Extrude outlines: 0)

(Slice 0, 1 Extruder) 
(Layer Height: 	0.600)
(Layer Width: 	0.960)
G1 Z0.000 F1380.000 (move Z)
(insets: 0)
(infills: 0)
(support path, length: 2)
G1 X-15.899 Y-11.844 Z0.600 F6000.000 (move into position)
G1 F1200.000 A1.000 (squirt)
G1 X15.899 Y-11.844 Z0.600 F1800.000 A7.096 (d: 31.798)
(connection path, length: 2)
G1 X15.899 Y-13.896 Z0.600 F1800.000 A7.489 (d: 2.052)
(support path, length: 2)
G1 X-15.899 Y-13.896 Z0.600 F1800.000 A13.585 (d: 31.798)
(connection path, length: 2)
G1 X-15.899 Y-9.792 Z0.600 F1800.000 A14.372 (d: 4.104)
(support path, length: 2)
G1 X15.899 Y-9.792 Z0.600 F1800.000 A20.468 (d: 31.798)
(connection path, length: 2)
G1 X15.899 Y-7.740 Z0.600 F1800.000 A20.862 (d: 2.052)
(support path, length: 2)
G1 X-15.899 Y-7.740 Z0.600 F1800.000 A26.958 (d: 31.798)
(connection path, length: 2)
G1 X-15.899 Y-5.688 Z0.600 F1800.000 A27.351 (d: 2.052)
(support path, length: 2)
G1 X15.899 Y-5.688 Z0.600 F1800.000 A33.447 (d: 31.798)
(connection path, length: 2)
G1 X15.899 Y-3.636 Z0.600 F1800.000 A33.840 (d: 2.052)
(support path, length: 2)
G1 X-15.899 Y-3.636 Z0.600 F1800.000 A39.936 (d: 31.798)
(connection path, length: 2)
G1 X-15.899 Y-1.584 Z0.600 F1800.000 A40.330 (d: 2.052)
(support path, length: 2)
G1 X15.899 Y-1.584 Z0.600 F1800.000 A46.426 (d: 31.798)
(connection path, length: 2)
G1 X15.899 Y0.468 Z0.600 F1800.000 A46.819 (d: 2.052)
(support path, length: 2)
G1 X-15.899 Y0.468 Z0.600 F1800.000 A52.915 (d: 31.798)
(connection path, length: 2)
G1 X-15.899 Y2.520 Z0.600 F1800.000 A53.308 (d: 2.052)
(support path, length: 2)
G1 X15.899 Y2.520 Z0.600 F1800.000 A59.404 (d: 31.798)
(connection path, length: 2)
G1 X15.899 Y4.572 Z0.600 F1800.000 A59.798 (d: 2.052)
(support path, length: 2)
G1 X-15.899 Y4.572 Z0.600 F1800.000 A65.894 (d: 31.798)
(connection path, length: 2)
G1 X-15.899 Y6.624 Z0.600 F1800.000 A66.287 (d: 2.052)
(support path, length: 2)
G1 X15.899 Y6.624 Z0.600 F1800.000 A72.383 (d: 31.798)
(connection path, length: 2)
G1 X15.899 Y8.676 Z0.600 F1800.000 A72.777 (d: 2.052)
(support path, length: 2)
G1 X-15.899 Y8.676 Z0.600 F1800.000 A78.873 (d: 31.798)
(connection path, length: 2)
G1 X-15.899 Y10.728 Z0.600 F1800.000 A79.266 (d: 2.052)
(support path, length: 2)
G1 X15.899 Y10.728 Z0.600 F1800.000 A85.362 (d: 31.798)
(connection path, length: 2)
G1 X15.899 Y12.780 Z0.600 F1800.000 A85.755 (d: 2.052)
(support path, length: 2)
G1 X-15.899 Y12.780 Z0.600 F1800.000 A91.851 (d: 31.798)
(connection path, length: 2)
G1 X-15.899 Y14.832 Z0.600 F1800.000 A92.245 (d: 2.052)
(support path, length: 2)
G1 X15.899 Y14.832 Z0.600 F1800.000 A98.341 (d: 31.798)
G1 F1200.000 A97.341 (snort)


(Slice 1, 1 Extruder) 
(Layer Height: 	0.300)
(Layer Width: 	0.480)
G1 Z0.600 F1380.000 (move Z)
(insets: 0)
(infills: 0)
(support path, length: 2)
G1 X-11.844 Y15.899 Z0.900 F6000.000 (move into position)
G1 F1200.000 A98.341 (squirt)
G1 X-11.844 Y-15.899 Z0.900 F4800.000 A99.865 (d: 31.798)
(connection path, length: 2)
G1 X-9.792 Y-15.899 Z0.900 F4800.000 A99.963 (d: 2.052)
(support path, length: 2)
G1 X-9.792 Y15.899 Z0.900 F4800.000 A101.487 (d: 31.798)
(connection path, length: 2)
G1 X-7.740 Y15.899 Z0.900 F4800.000 A101.585 (d: 2.052)
(support path, length: 2)
G1 X-7.740 Y-15.899 Z0.900 F4800.000 A103.109 (d: 31.798)
(connection path, length: 2)
G1 X-5.688 Y-15.899 Z0.900 F4800.000 A103.208 (d: 2.052)
(support path, length: 2)
G1 X-5.688 Y15.899 Z0.900 F4800.000 A104.732 (d: 31.798)
(connection path, length: 2)
G1 X-3.636 Y15.899 Z0.900 F4800.000 A104.830 (d: 2.052)
(support path, length: 2)
G1 X-3.636 Y-15.899 Z0.900 F4800.000 A106.354 (d: 31.798)
(connection path, length: 2)
G1 X-1.584 Y-15.899 Z0.900 F4800.000 A106.452 (d: 2.052)
(support path, length: 2)
G1 X-1.584 Y15.899 Z0.900 F4800.000 A107.976 (d: 31.798)
(connection path, length: 2)
G1 X0.468 Y15.899 Z0.900 F4800.000 A108.075 (d: 2.052)
(support path, length: 2)
G1 X0.468 Y-15.899 Z0.900 F4800.000 A109.599 (d: 31.798)
(connection path, length: 2)
G1 X2.520 Y-15.899 Z0.900 F4800.000 A109.697 (d: 2.052)
(support path, length: 2)
G1 X2.520 Y15.899 Z0.900 F4800.000 A111.221 (d: 31.798)
(connection path, length: 2)
G1 X4.572 Y15.899 Z0.900 F4800.000 A111.319 (d: 2.052)
(support path, length: 2)
G1 X4.572 Y-15.899 Z0.900 F4800.000 A112.843 (d: 31.798)
(connection path, length: 2)
G1 X6.624 Y-15.899 Z0.900 F4800.000 A112.942 (d: 2.052)
(support path, length: 2)
G1 X6.624 Y15.899 Z0.900 F4800.000 A114.466 (d: 31.798)
(connection path, length: 2)
G1 X8.676 Y15.899 Z0.900 F4800.000 A114.564 (d: 2.052)
(support path, length: 2)
G1 X8.676 Y-15.899 Z0.900 F4800.000 A116.088 (d: 31.798)
(connection path, length: 2)
G1 X10.728 Y-15.899 Z0.900 F4800.000 A116.186 (d: 2.052)
(support path, length: 2)
G1 X10.728 Y15.899 Z0.900 F4800.000 A117.710 (d: 31.798)
(connection path, length: 2)
G1 X12.780 Y15.899 Z0.900 F4800.000 A117.809 (d: 2.052)
(support path, length: 2)
G1 X12.780 Y-15.899 Z0.900 F4800.000 A119.333 (d: 31.798)
(connection path, length: 2)
G1 X14.832 Y-15.899 Z0.900 F4800.000 A119.431 (d: 2.052)
(support path, length: 2)
G1 X14.832 Y15.899 Z0.900 F4800.000 A120.955 (d: 31.798)
(connection path, length: 2)
G1 X-13.896 Y15.899 Z0.900 F4800.000 A122.332 (d: 28.728)
(support path, length: 2)
G1 X-13.896 Y-15.899 Z0.900 F4800.000 A123.856 (d: 31.798)
G1 F1200.000 A122.856 (snort)


(Slice 2, 1 Extruder) 
(Layer Height: 	0.270)
(Layer Width: 	0.432)
G1 Z1.100 F1380.000 (move Z)
(insets: 0)
(infills: 0)
(inset path, length: 5)
G1 X-9.394 Y9.394 Z1.370 F6000.000 (move into position)
G1 F1200.000 A123.856 (squirt)
G1 X-9.394 Y-9.394 Z1.370 F4800.000 A124.585 (d: 18.788)
G1 X9.394 Y-9.394 Z1.370 F4800.000 A125.315 (d: 18.788)
G1 X9.394 Y9.394 Z1.370 F4800.000 A126.044 (d: 18.788)
G1 X-9.394 Y9.394 Z1.370 F4800.000 A126.774 (d: 18.788)
(connection path, length: 2)
G1 X9.783 Y9.783 Z1.370 F4800.000 A127.518 (d: 19.1809)
(inset path, length: 5)
G1 X-9.783 Y9.783 Z1.370 F2100.000 A128.278 (d: 19.566)
G1 X-9.783 Y-9.783 Z1.370 F2100.000 A129.037 (d: 19.566)
G1 X9.783 Y-9.783 Z1.370 F2100.000 A129.797 (d: 19.566)
G1 X9.783 Y9.783 Z1.370 F2100.000 A130.556 (d: 19.566)
(connection path, length: 2)
G1 X9.394 Y9.086 Z1.370 F4800.000 A130.587 (d: 0.797856)
(infill path, length: 2)
G1 X-9.394 Y9.086 Z1.370 F4800.000 A131.317 (d: 18.788)
(connection path, length: 2)
G1 X-9.394 Y8.676 Z1.370 F4800.000 A131.333 (d: 0.4104)
(infill path, length: 2)
G1 X9.394 Y8.676 Z1.370 F4800.000 A132.062 (d: 18.788)
(connection path, length: 2)
G1 X9.394 Y8.266 Z1.370 F4800.000 A132.078 (d: 0.4104)
(infill path, length: 2)
G1 X-9.394 Y8.266 Z1.370 F4800.000 A132.807 (d: 18.788)
(connection path, length: 2)
G1 X-9.394 Y7.855 Z1.370 F4800.000 A132.823 (d: 0.4104)
(infill path, length: 2)
G1 X9.394 Y7.855 Z1.370 F4800.000 A133.553 (d: 18.788)
(connection path, length: 2)
G1 X9.394 Y7.445 Z1.370 F4800.000 A133.569 (d: 0.4104)
(infill path, length: 2)
G1 X-9.394 Y7.445 Z1.370 F4800.000 A134.298 (d: 18.788)
(connection path, length: 2)
G1 X-9.394 Y7.034 Z1.370 F4800.000 A134.314 (d: 0.4104)
(infill path, length: 2)
G1 X9.394 Y7.034 Z1.370 F4800.000 A135.043 (d: 18.788)
(connection path, length: 2)
G1 X9.394 Y6.624 Z1.370 F4800.000 A135.059 (d: 0.4104)
(infill path, length: 2)
G1 X-9.394 Y6.624 Z1.370 F4800.000 A135.789 (d: 18.788)
(connection path, length: 2)
G1 X-9.394 Y6.214 Z1.370 F4800.000 A135.805 (d: 0.4104)
(infill path, length: 2)
G1 X9.394 Y6.214 Z1.370 F4800.000 A136.534 (d: 18.788)
(connection path, length: 2)
G1 X9.394 Y5.803 Z1.370 F4800.000 A136.550 (d: 0.4104)
(infill path, length: 2)
G1 X-9.394 Y5.803 Z1.370 F4800.000 A137.279 (d: 18.788)
(connection path, length: 2)
G1 X-9.394 Y5.393 Z1.370 F4800.000 A137.295 (d: 0.4104)
(infill path, length: 2)
G1 X9.394 Y5.393 Z1.370 F4800.000 A138.025 (d: 18.788)
(connection path, length: 2)
G1 X9.394 Y4.982 Z1.370 F4800.000 A138.040 (d: 0.4104)
(infill path, length: 2)
G1 X-9.394 Y4.982 Z1.370 F4800.000 A138.770 (d: 18.788)
(connection path, length: 2)
G1 X-9.394 Y4.572 Z1.370 F4800.000 A138.786 (d: 0.4104)
(infill path, length: 2)
G1 X9.394 Y4.572 Z1.370 F4800.000 A139.515 (d: 18.788)
(connection path, length: 2)
G1 X9.394 Y4.162 Z1.370 F4800.000 A139.531 (d: 0.4104)
(infill path, length: 2)
G1 X-9.394 Y4.162 Z1.370 F4800.000 A140.260 (d: 18.788)
(connection path, length: 2)
G1 X-9.394 Y3.751 Z1.370 F4800.000 A140.276 (d: 0.4104)
(infill path, length: 2)
G1 X9.394 Y3.751 Z1.370 F4800.000 A141.006 (d: 18.788)
(connection path, length: 2)
G1 X9.394 Y3.341 Z1.370 F4800.000 A141.022 (d: 0.4104)
(infill path, length: 2)
G1 X-9.394 Y3.341 Z1.370 F4800.000 A141.751 (d: 18.788)
(connection path, length: 2)
G1 X-9.394 Y2.930 Z1.370 F4800.000 A141.767 (d: 0.4104)
(infill path, length: 2)
G1 X9.394 Y2.930 Z1.370 F4800.000 A142.496 (d: 18.788)
(connection path, length: 2)
G1 X9.394 Y2.520 Z1.370 F4800.000 A142.512 (d: 0.4104)
(infill path, length: 2)
G1 X-9.394 Y2.520 Z1.370 F4800.000 A143.242 (d: 18.788)
(connection path, length: 2)
G1 X-9.394 Y2.110 Z1.370 F4800.000 A143.258 (d: 0.4104)
(infill path, length: 2)
G1 X9.394 Y2.110 Z1.370 F4800.000 A143.987 (d: 18.788)
(connection path, length: 2)
G1 X9.394 Y1.699 Z1.370 F4800.000 A144.003 (d: 0.4104)
(infill path, length: 2)
G1 X-9.394 Y1.699 Z1.370 F4800.000 A144.732 (d: 18.788)
(connection path, length: 2)
G1 X-9.394 Y1.289 Z1.370 F4800.000 A144.748 (d: 0.4104)
(infill path, length: 2)
G1 X9.394 Y1.289 Z1.370 F4800.000 A145.478 (d: 18.788)
(connection path, length: 2)
G1 X9.394 Y0.878 Z1.370 F4800.000 A145.494 (d: 0.4104)
(infill path, length: 2)
G1 X-9.394 Y0.878 Z1.370 F4800.000 A146.223 (d: 18.788)
(connection path, length: 2)
G1 X-9.394 Y0.468 Z1.370 F4800.000 A146.239 (d: 0.4104)
(infill path, length: 2)
G1 X9.394 Y0.468 Z1.370 F4800.000 A146.968 (d: 18.788)
(connection path, length: 2)
G1 X9.394 Y0.058 Z1.370 F4800.000 A146.984 (d: 0.4104)
(infill path, length: 2)
G1 X-9.394 Y0.058 Z1.370 F4800.000 A147.714 (d: 18.788)
(connection path, length: 2)
G1 X-9.394 Y-0.353 Z1.370 F4800.000 A147.729 (d: 0.4104)
(infill path, length: 2)
G1 X9.394 Y-0.353 Z1.370 F4800.000 A148.459 (d: 18.788)
(connection path, length: 2)
G1 X9.394 Y-0.763 Z1.370 F4800.000 A148.475 (d: 0.4104)
(infill path, length: 2)
G1 X-9.394 Y-0.763 Z1.370 F4800.000 A149.204 (d: 18.788)
(connection path, length: 2)
G1 X-9.394 Y-1.174 Z1.370 F4800.000 A149.220 (d: 0.4104)
(infill path, length: 2)
G1 X9.394 Y-1.174 Z1.370 F4800.000 A149.949 (d: 18.788)
(connection path, length: 2)
G1 X9.394 Y-1.584 Z1.370 F4800.000 A149.965 (d: 0.4104)
(infill path, length: 2)
G1 X-9.394 Y-1.584 Z1.370 F4800.000 A150.695 (d: 18.788)
(connection path, length: 2)
G1 X-9.394 Y-1.994 Z1.370 F4800.000 A150.711 (d: 0.4104)
(infill path, length: 2)
G1 X9.394 Y-1.994 Z1.370 F4800.000 A151.440 (d: 18.788)
(connection path, length: 2)
G1 X9.394 Y-2.405 Z1.370 F4800.000 A151.456 (d: 0.4104)
(infill path, length: 2)
G1 X-9.394 Y-2.405 Z1.370 F4800.000 A152.185 (d: 18.788)
(connection path, length: 2)
G1 X-9.394 Y-2.815 Z1.370 F4800.000 A152.201 (d: 0.4104)
(infill path, length: 2)
G1 X9.394 Y-2.815 Z1.370 F4800.000 A152.931 (d: 18.788)
(connection path, length: 2)
G1 X9.394 Y-3.226 Z1.370 F4800.000 A152.947 (d: 0.4104)
(infill path, length: 2)
G1 X-9.394 Y-3.226 Z1.370 F4800.000 A153.676 (d: 18.788)
(connection path, length: 2)
G1 X-9.394 Y-3.636 Z1.370 F4800.000 A153.692 (d: 0.4104)
(infill path, length: 2)
G1 X9.394 Y-3.636 Z1.370 F4800.000 A154.421 (d: 18.788)
(connection path, length: 2)
G1 X9.394 Y-4.046 Z1.370 F4800.000 A154.437 (d: 0.4104)
(infill path, length: 2)
G1 X-9.394 Y-4.046 Z1.370 F4800.000 A155.167 (d: 18.788)
(connection path, length: 2)
G1 X-9.394 Y-4.457 Z1.370 F4800.000 A155.183 (d: 0.4104)
(infill path, length: 2)
G1 X9.394 Y-4.457 Z1.370 F4800.000 A155.912 (d: 18.788)
(connection path, length: 2)
G1 X9.394 Y-4.867 Z1.370 F4800.000 A155.928 (d: 0.4104)
(infill path, length: 2)
G1 X-9.394 Y-4.867 Z1.370 F4800.000 A156.657 (d: 18.788)
(connection path, length: 2)
G1 X-9.394 Y-5.278 Z1.370 F4800.000 A156.673 (d: 0.4104)
(infill path, length: 2)
G1 X9.394 Y-5.278 Z1.370 F4800.000 A157.402 (d: 18.788)
(connection path, length: 2)
G1 X9.394 Y-5.688 Z1.370 F4800.000 A157.418 (d: 0.4104)
(infill path, length: 2)
G1 X-9.394 Y-5.688 Z1.370 F4800.000 A158.148 (d: 18.788)
(connection path, length: 2)
G1 X-9.394 Y-6.098 Z1.370 F4800.000 A158.164 (d: 0.4104)
(infill path, length: 2)
G1 X9.394 Y-6.098 Z1.370 F4800.000 A158.893 (d: 18.788)
(connection path, length: 2)
G1 X9.394 Y-6.509 Z1.370 F4800.000 A158.909 (d: 0.4104)
(infill path, length: 2)
G1 X-9.394 Y-6.509 Z1.370 F4800.000 A159.638 (d: 18.788)
(connection path, length: 2)
G1 X-9.394 Y-6.919 Z1.370 F4800.000 A159.654 (d: 0.4104)
(infill path, length: 2)
G1 X9.394 Y-6.919 Z1.370 F4800.000 A160.384 (d: 18.788)
(connection path, length: 2)
G1 X9.394 Y-7.330 Z1.370 F4800.000 A160.400 (d: 0.4104)
(infill path, length: 2)
G1 X-9.394 Y-7.330 Z1.370 F4800.000 A161.129 (d: 18.788)
(connection path, length: 2)
G1 X-9.394 Y-7.740 Z1.370 F4800.000 A161.145 (d: 0.4104)
(infill path, length: 2)
G1 X9.394 Y-7.740 Z1.370 F4800.000 A161.874 (d: 18.788)
(connection path, length: 2)
G1 X9.394 Y-8.150 Z1.370 F4800.000 A161.890 (d: 0.4104)
(infill path, length: 2)
G1 X-9.394 Y-8.150 Z1.370 F4800.000 A162.620 (d: 18.788)
(connection path, length: 2)
G1 X-9.394 Y-8.561 Z1.370 F4800.000 A162.636 (d: 0.4104)
(infill path, length: 2)
G1 X9.394 Y-8.561 Z1.370 F4800.000 A163.365 (d: 18.788)
(connection path, length: 2)
G1 X9.394 Y-8.971 Z1.370 F4800.000 A163.381 (d: 0.4104)
(infill path, length: 2)
G1 X-9.394 Y-8.971 Z1.370 F4800.000 A164.110 (d: 18.788)
(connection path, length: 2)
G1 X-9.394 Y-9.382 Z1.370 F4800.000 A164.126 (d: 0.4104)
(infill path, length: 2)
G1 X9.394 Y-9.382 Z1.370 F4800.000 A164.856 (d: 18.788)
G1 F1200.000 A163.856 (snort)


(Slice 3, 1 Extruder) 
(Layer Height: 	0.270)
(Layer Width: 	0.432)
G1 Z1.370 F1380.000 (move Z)
(insets: 0)
(infills: 0)
(inset path, length: 5)
G1 X9.394 Y9.394 Z1.640 F6000.000 (move into position)
G1 F1200.000 A164.856 (squirt)
G1 X9.394 Y-9.394 Z1.640 F4800.000 A165.585 (d: 18.788)
G1 X-9.394 Y-9.394 Z1.640 F4800.000 A166.314 (d: 18.788)
G1 X-9.394 Y9.394 Z1.640 F4800.000 A167.044 (d: 18.788)
G1 X9.394 Y9.394 Z1.640 F4800.000 A167.773 (d: 18.788)
(connection path, length: 2)
G1 X9.783 Y9.783 Z1.640 F4800.000 A167.794 (d: 0.550129)
(inset path, length: 5)
G1 X9.783 Y-9.783 Z1.640 F2100.000 A168.554 (d: 19.566)
G1 X-9.783 Y-9.783 Z1.640 F2100.000 A169.314 (d: 19.566)
G1 X-9.783 Y9.783 Z1.640 F2100.000 A170.073 (d: 19.566)
G1 X9.783 Y9.783 Z1.640 F2100.000 A170.833 (d: 19.566)
(connection path, length: 2)
G1 X9.086 Y9.394 Z1.640 F4800.000 A170.864 (d: 0.797854)
(infill path, length: 2)
G1 X9.086 Y-9.394 Z1.640 F4800.000 A171.593 (d: 18.788)
(connection path, length: 2)
G1 X8.676 Y-9.394 Z1.640 F4800.000 A171.609 (d: 0.4104)
(infill path, length: 2)
G1 X8.676 Y9.394 Z1.640 F4800.000 A172.338 (d: 18.788)
(connection path, length: 2)
G1 X8.266 Y9.394 Z1.640 F4800.000 A172.354 (d: 0.4104)
(infill path, length: 2)
G1 X8.266 Y-9.394 Z1.640 F4800.000 A173.084 (d: 18.788)
(connection path, length: 2)
G1 X7.855 Y-9.394 Z1.640 F4800.000 A173.100 (d: 0.4104)
(infill path, length: 2)
G1 X7.855 Y9.394 Z1.640 F4800.000 A173.829 (d: 18.788)
(connection path, length: 2)
G1 X7.445 Y9.394 Z1.640 F4800.000 A173.845 (d: 0.4104)
(infill path, length: 2)
G1 X7.445 Y-9.394 Z1.640 F4800.000 A174.574 (d: 18.788)
(connection path, length: 2)
G1 X7.034 Y-9.394 Z1.640 F4800.000 A174.590 (d: 0.4104)
(infill path, length: 2)
G1 X7.034 Y9.394 Z1.640 F4800.000 A175.320 (d: 18.788)
(connection path, length: 2)
G1 X6.624 Y9.394 Z1.640 F4800.000 A175.336 (d: 0.4104)
(infill path, length: 2)
G1 X6.624 Y-9.394 Z1.640 F4800.000 A176.065 (d: 18.788)
(connection path, length: 2)
G1 X6.214 Y-9.394 Z1.640 F4800.000 A176.081 (d: 0.4104)
(infill path, length: 2)
G1 X6.214 Y9.394 Z1.640 F4800.000 A176.810 (d: 18.788)
(connection path, length: 2)
G1 X5.803 Y9.394 Z1.640 F4800.000 A176.826 (d: 0.4104)
(infill path, length: 2)
G1 X5.803 Y-9.394 Z1.640 F4800.000 A177.556 (d: 18.788)
(connection path, length: 2)
G1 X5.393 Y-9.394 Z1.640 F4800.000 A177.571 (d: 0.4104)
(infill path, length: 2)
G1 X5.393 Y9.394 Z1.640 F4800.000 A178.301 (d: 18.788)
(connection path, length: 2)
G1 X4.982 Y9.394 Z1.640 F4800.000 A178.317 (d: 0.4104)
(infill path, length: 2)
G1 X4.982 Y-9.394 Z1.640 F4800.000 A179.046 (d: 18.788)
(connection path, length: 2)
G1 X4.572 Y-9.394 Z1.640 F4800.000 A179.062 (d: 0.4104)
(infill path, length: 2)
G1 X4.572 Y9.394 Z1.640 F4800.000 A179.791 (d: 18.788)
(connection path, length: 2)
G1 X4.162 Y9.394 Z1.640 F4800.000 A179.807 (d: 0.4104)
(infill path, length: 2)
G1 X4.162 Y-9.394 Z1.640 F4800.000 A180.537 (d: 18.788)
(connection path, length: 2)
G1 X3.751 Y-9.394 Z1.640 F4800.000 A180.553 (d: 0.4104)
(infill path, length: 2)
G1 X3.751 Y9.394 Z1.640 F4800.000 A181.282 (d: 18.788)
(connection path, length: 2)
G1 X3.341 Y9.394 Z1.640 F4800.000 A181.298 (d: 0.4104)
(infill path, length: 2)
G1 X3.341 Y-9.394 Z1.640 F4800.000 A182.027 (d: 18.788)
(connection path, length: 2)
G1 X2.930 Y-9.394 Z1.640 F4800.000 A182.043 (d: 0.4104)
(infill path, length: 2)
G1 X2.930 Y9.394 Z1.640 F4800.000 A182.773 (d: 18.788)
(connection path, length: 2)
G1 X2.520 Y9.394 Z1.640 F4800.000 A182.789 (d: 0.4104)
(infill path, length: 2)
G1 X2.520 Y-9.394 Z1.640 F4800.000 A183.518 (d: 18.788)
(connection path, length: 2)
G1 X2.110 Y-9.394 Z1.640 F4800.000 A183.534 (d: 0.4104)
(infill path, length: 2)
G1 X2.110 Y9.394 Z1.640 F4800.000 A184.263 (d: 18.788)
(connection path, length: 2)
G1 X1.699 Y9.394 Z1.640 F4800.000 A184.279 (d: 0.4104)
(infill path, length: 2)
G1 X1.699 Y-9.394 Z1.640 F4800.000 A185.009 (d: 18.788)
(connection path, length: 2)
G1 X1.289 Y-9.394 Z1.640 F4800.000 A185.024 (d: 0.4104)
(infill path, length: 2)
G1 X1.289 Y9.394 Z1.640 F4800.000 A185.754 (d: 18.788)
(connection path, length: 2)
G1 X0.878 Y9.394 Z1.640 F4800.000 A185.770 (d: 0.4104)
(infill path, length: 2)
G1 X0.878 Y-9.394 Z1.640 F4800.000 A186.499 (d: 18.788)
(connection path, length: 2)
G1 X0.468 Y-9.394 Z1.640 F4800.000 A186.515 (d: 0.4104)
(infill path, length: 2)
G1 X0.468 Y9.394 Z1.640 F4800.000 A187.244 (d: 18.788)
(connection path, length: 2)
G1 X0.058 Y9.394 Z1.640 F4800.000 A187.260 (d: 0.4104)
(infill path, length: 2)
G1 X0.058 Y-9.394 Z1.640 F4800.000 A187.990 (d: 18.788)
(connection path, length: 2)
G1 X-0.353 Y-9.394 Z1.640 F4800.000 A188.006 (d: 0.4104)
(infill path, length: 2)
G1 X-0.353 Y9.394 Z1.640 F4800.000 A188.735 (d: 18.788)
(connection path, length: 2)
G1 X-0.763 Y9.394 Z1.640 F4800.000 A188.751 (d: 0.4104)
(infill path, length: 2)
G1 X-0.763 Y-9.394 Z1.640 F4800.000 A189.480 (d: 18.788)
(connection path, length: 2)
G1 X-1.174 Y-9.394 Z1.640 F4800.000 A189.496 (d: 0.4104)
(infill path, length: 2)
G1 X-1.174 Y9.394 Z1.640 F4800.000 A190.226 (d: 18.788)
(connection path, length: 2)
G1 X-1.584 Y9.394 Z1.640 F4800.000 A190.242 (d: 0.4104)
(infill path, length: 2)
G1 X-1.584 Y-9.394 Z1.640 F4800.000 A190.971 (d: 18.788)
(connection path, length: 2)
G1 X-1.994 Y-9.394 Z1.640 F4800.000 A190.987 (d: 0.4104)
(infill path, length: 2)
G1 X-1.994 Y9.394 Z1.640 F4800.000 A191.716 (d: 18.788)
(connection path, length: 2)
G1 X-2.405 Y9.394 Z1.640 F4800.000 A191.732 (d: 0.4104)
(infill path, length: 2)
G1 X-2.405 Y-9.394 Z1.640 F4800.000 A192.462 (d: 18.788)
(connection path, length: 2)
G1 X-2.815 Y-9.394 Z1.640 F4800.000 A192.478 (d: 0.4104)
(infill path, length: 2)
G1 X-2.815 Y9.394 Z1.640 F4800.000 A193.207 (d: 18.788)
(connection path, length: 2)
G1 X-3.226 Y9.394 Z1.640 F4800.000 A193.223 (d: 0.4104)
(infill path, length: 2)
G1 X-3.226 Y-9.394 Z1.640 F4800.000 A193.952 (d: 18.788)
(connection path, length: 2)
G1 X-3.636 Y-9.394 Z1.640 F4800.000 A193.968 (d: 0.4104)
(infill path, length: 2)
G1 X-3.636 Y9.394 Z1.640 F4800.000 A194.698 (d: 18.788)
(connection path, length: 2)
G1 X-4.046 Y9.394 Z1.640 F4800.000 A194.713 (d: 0.4104)
(infill path, length: 2)
G1 X-4.046 Y-9.394 Z1.640 F4800.000 A195.443 (d: 18.788)
(connection path, length: 2)
G1 X-4.457 Y-9.394 Z1.640 F4800.000 A195.459 (d: 0.4104)
(infill path, length: 2)
G1 X-4.457 Y9.394 Z1.640 F4800.000 A196.188 (d: 18.788)
(connection path, length: 2)
G1 X-4.867 Y9.394 Z1.640 F4800.000 A196.204 (d: 0.4104)
(infill path, length: 2)
G1 X-4.867 Y-9.394 Z1.640 F4800.000 A196.933 (d: 18.788)
(connection path, length: 2)
G1 X-5.278 Y-9.394 Z1.640 F4800.000 A196.949 (d: 0.4104)
(infill path, length: 2)
G1 X-5.278 Y9.394 Z1.640 F4800.000 A197.679 (d: 18.788)
(connection path, length: 2)
G1 X-5.688 Y9.394 Z1.640 F4800.000 A197.695 (d: 0.4104)
(infill path, length: 2)
G1 X-5.688 Y-9.394 Z1.640 F4800.000 A198.424 (d: 18.788)
(connection path, length: 2)
G1 X-6.098 Y-9.394 Z1.640 F4800.000 A198.440 (d: 0.4104)
(infill path, length: 2)
G1 X-6.098 Y9.394 Z1.640 F4800.000 A199.169 (d: 18.788)
(connection path, length: 2)
G1 X-6.509 Y9.394 Z1.640 F4800.000 A199.185 (d: 0.4104)
(infill path, length: 2)
G1 X-6.509 Y-9.394 Z1.640 F4800.000 A199.915 (d: 18.788)
(connection path, length: 2)
G1 X-6.919 Y-9.394 Z1.640 F4800.000 A199.931 (d: 0.4104)
(infill path, length: 2)
G1 X-6.919 Y9.394 Z1.640 F4800.000 A200.660 (d: 18.788)
(connection path, length: 2)
G1 X-7.330 Y9.394 Z1.640 F4800.000 A200.676 (d: 0.4104)
(infill path, length: 2)
G1 X-7.330 Y-9.394 Z1.640 F4800.000 A201.405 (d: 18.788)
(connection path, length: 2)
G1 X-7.740 Y-9.394 Z1.640 F4800.000 A201.421 (d: 0.4104)
(infill path, length: 2)
G1 X-7.740 Y9.394 Z1.640 F4800.000 A202.151 (d: 18.788)
(connection path, length: 2)
G1 X-8.150 Y9.394 Z1.640 F4800.000 A202.167 (d: 0.4104)
(infill path, length: 2)
G1 X-8.150 Y-9.394 Z1.640 F4800.000 A202.896 (d: 18.788)
(connection path, length: 2)
G1 X-8.561 Y-9.394 Z1.640 F4800.000 A202.912 (d: 0.4104)
(infill path, length: 2)
G1 X-8.561 Y9.394 Z1.640 F4800.000 A203.641 (d: 18.788)
(connection path, length: 2)
G1 X-8.971 Y9.394 Z1.640 F4800.000 A203.657 (d: 0.4104)
(infill path, length: 2)
G1 X-8.971 Y-9.394 Z1.640 F4800.000 A204.387 (d: 18.788)
(connection path, length: 2)
G1 X-9.382 Y-9.394 Z1.640 F4800.000 A204.402 (d: 0.4104)
(infill path, length: 2)
G1 X-9.382 Y9.394 Z1.640 F4800.000 A205.132 (d: 18.788)
G1 F1200.000 A204.132 (snort)


(Slice 4, 1 Extruder) 
(Layer Height: 	0.270)
(Layer Width: 	0.432)
G1 Z1.640 F1380.000 (move Z)
(insets: 0)
(infills: 0)
(inset path, length: 5)
G1 X9.394 Y9.394 Z1.910 F6000.000 (move into position)
G1 F1200.000 A205.132 (squirt)
G1 X9.394 Y-9.394 Z1.910 F4800.000 A205.861 (d: 18.788)
G1 X-9.394 Y-9.394 Z1.910 F4800.000 A206.591 (d: 18.788)
G1 X-9.394 Y9.394 Z1.910 F4800.000 A207.320 (d: 18.788)
G1 X9.394 Y9.394 Z1.910 F4800.000 A208.049 (d: 18.788)
(connection path, length: 2)
G1 X9.783 Y9.783 Z1.910 F4800.000 A208.071 (d: 0.550129)
(inset path, length: 5)
G1 X9.783 Y-9.783 Z1.910 F2100.000 A208.830 (d: 19.566)
G1 X-9.783 Y-9.783 Z1.910 F2100.000 A209.590 (d: 19.566)
G1 X-9.783 Y9.783 Z1.910 F2100.000 A210.349 (d: 19.566)
G1 X9.783 Y9.783 Z1.910 F2100.000 A211.109 (d: 19.566)
(connection path, length: 2)
G1 X9.394 Y9.086 Z1.910 F4800.000 A211.140 (d: 0.797856)
(infill path, length: 2)
G1 X-9.394 Y9.086 Z1.910 F4800.000 A211.869 (d: 18.788)
(connection path, length: 2)
G1 X-9.394 Y8.676 Z1.910 F4800.000 A211.885 (d: 0.4104)
(infill path, length: 2)
G1 X9.394 Y8.676 Z1.910 F4800.000 A212.615 (d: 18.788)
(connection path, length: 2)
G1 X9.394 Y8.266 Z1.910 F4800.000 A212.631 (d: 0.4104)
(infill path, length: 2)
G1 X-9.394 Y8.266 Z1.910 F4800.000 A213.360 (d: 18.788)
(connection path, length: 2)
G1 X-9.394 Y7.855 Z1.910 F4800.000 A213.376 (d: 0.4104)
(infill path, length: 2)
G1 X9.394 Y7.855 Z1.910 F4800.000 A214.105 (d: 18.788)
(connection path, length: 2)
G1 X9.394 Y7.445 Z1.910 F4800.000 A214.121 (d: 0.4104)
(infill path, length: 2)
G1 X-9.394 Y7.445 Z1.910 F4800.000 A214.851 (d: 18.788)
(connection path, length: 2)
G1 X-9.394 Y7.034 Z1.910 F4800.000 A214.866 (d: 0.4104)
(infill path, length: 2)
G1 X9.394 Y7.034 Z1.910 F4800.000 A215.596 (d: 18.788)
(connection path, length: 2)
G1 X9.394 Y6.624 Z1.910 F4800.000 A215.612 (d: 0.4104)
(infill path, length: 2)
G1 X-9.394 Y6.624 Z1.910 F4800.000 A216.341 (d: 18.788)
(connection path, length: 2)
G1 X-9.394 Y6.214 Z1.910 F4800.000 A216.357 (d: 0.4104)
(infill path, length: 2)
G1 X9.394 Y6.214 Z1.910 F4800.000 A217.086 (d: 18.788)
(connection path, length: 2)
G1 X9.394 Y5.803 Z1.910 F4800.000 A217.102 (d: 0.4104)
(infill path, length: 2)
G1 X-9.394 Y5.803 Z1.910 F4800.000 A217.832 (d: 18.788)
(connection path, length: 2)
G1 X-9.394 Y5.393 Z1.910 F4800.000 A217.848 (d: 0.4104)
(infill path, length: 2)
G1 X9.394 Y5.393 Z1.910 F4800.000 A218.577 (d: 18.788)
(connection path, length: 2)
G1 X9.394 Y4.982 Z1.910 F4800.000 A218.593 (d: 0.4104)
(infill path, length: 2)
G1 X-9.394 Y4.982 Z1.910 F4800.000 A219.322 (d: 18.788)
(connection path, length: 2)
G1 X-9.394 Y4.572 Z1.910 F4800.000 A219.338 (d: 0.4104)
(infill path, length: 2)
G1 X9.394 Y4.572 Z1.910 F4800.000 A220.068 (d: 18.788)
(connection path, length: 2)
G1 X9.394 Y4.162 Z1.910 F4800.000 A220.084 (d: 0.4104)
(infill path, length: 2)
G1 X-9.394 Y4.162 Z1.910 F4800.000 A220.813 (d: 18.788)
(connection path, length: 2)
G1 X-9.394 Y3.751 Z1.910 F4800.000 A220.829 (d: 0.4104)
(infill path, length: 2)
G1 X9.394 Y3.751 Z1.910 F4800.000 A221.558 (d: 18.788)
(connection path, length: 2)
G1 X9.394 Y3.341 Z1.910 F4800.000 A221.574 (d: 0.4104)
(infill path, length: 2)
G1 X-9.394 Y3.341 Z1.910 F4800.000 A222.304 (d: 18.788)
(connection path, length: 2)
G1 X-9.394 Y2.930 Z1.910 F4800.000 A222.320 (d: 0.4104)
(infill path, length: 2)
G1 X9.394 Y2.930 Z1.910 F4800.000 A223.049 (d: 18.788)
(connection path, length: 2)
G1 X9.394 Y2.520 Z1.910 F4800.000 A223.065 (d: 0.4104)
(infill path, length: 2)
G1 X-9.394 Y2.520 Z1.910 F4800.000 A223.794 (d: 18.788)
(connection path, length: 2)
G1 X-9.394 Y2.110 Z1.910 F4800.000 A223.810 (d: 0.4104)
(infill path, length: 2)
G1 X9.394 Y2.110 Z1.910 F4800.000 A224.540 (d: 18.788)
(connection path, length: 2)
G1 X9.394 Y1.699 Z1.910 F4800.000 A224.555 (d: 0.4104)
(infill path, length: 2)
G1 X-9.394 Y1.699 Z1.910 F4800.000 A225.285 (d: 18.788)
(connection path, length: 2)
G1 X-9.394 Y1.289 Z1.910 F4800.000 A225.301 (d: 0.4104)
(infill path, length: 2)
G1 X9.394 Y1.289 Z1.910 F4800.000 A226.030 (d: 18.788)
(connection path, length: 2)
G1 X9.394 Y0.878 Z1.910 F4800.000 A226.046 (d: 0.4104)
(infill path, length: 2)
G1 X-9.394 Y0.878 Z1.910 F4800.000 A226.775 (d: 18.788)
(connection path, length: 2)
G1 X-9.394 Y0.468 Z1.910 F4800.000 A226.791 (d: 0.4104)
(infill path, length: 2)
G1 X9.394 Y0.468 Z1.910 F4800.000 A227.521 (d: 18.788)
(connection path, length: 2)
G1 X9.394 Y0.058 Z1.910 F4800.000 A227.537 (d: 0.4104)
(infill path, length: 2)
G1 X-9.394 Y0.058 Z1.910 F4800.000 A228.266 (d: 18.788)
(connection path, length: 2)
G1 X-9.394 Y-0.353 Z1.910 F4800.000 A228.282 (d: 0.4104)
(infill path, length: 2)
G1 X9.394 Y-0.353 Z1.910 F4800.000 A229.011 (d: 18.788)
(connection path, length: 2)
G1 X9.394 Y-0.763 Z1.910 F4800.000 A229.027 (d: 0.4104)
(infill path, length: 2)
G1 X-9.394 Y-0.763 Z1.910 F4800.000 A229.757 (d: 18.788)
(connection path, length: 2)
G1 X-9.394 Y-1.174 Z1.910 F4800.000 A229.773 (d: 0.4104)
(infill path, length: 2)
G1 X9.394 Y-1.174 Z1.910 F4800.000 A230.502 (d: 18.788)
(connection path, length: 2)
G1 X9.394 Y-1.584 Z1.910 F4800.000 A230.518 (d: 0.4104)
(infill path, length: 2)
G1 X-9.394 Y-1.584 Z1.910 F4800.000 A231.247 (d: 18.788)
(connection path, length: 2)
G1 X-9.394 Y-1.994 Z1.910 F4800.000 A231.263 (d: 0.4104)
(infill path, length: 2)
G1 X9.394 Y-1.994 Z1.910 F4800.000 A231.993 (d: 18.788)
(connection path, length: 2)
G1 X9.394 Y-2.405 Z1.910 F4800.000 A232.009 (d: 0.4104)
(infill path, length: 2)
G1 X-9.394 Y-2.405 Z1.910 F4800.000 A232.738 (d: 18.788)
(connection path, length: 2)
G1 X-9.394 Y-2.815 Z1.910 F4800.000 A232.754 (d: 0.4104)
(infill path, length: 2)
G1 X9.394 Y-2.815 Z1.910 F4800.000 A233.483 (d: 18.788)
(connection path, length: 2)
G1 X9.394 Y-3.226 Z1.910 F4800.000 A233.499 (d: 0.4104)
(infill path, length: 2)
G1 X-9.394 Y-3.226 Z1.910 F4800.000 A234.229 (d: 18.788)
(connection path, length: 2)
G1 X-9.394 Y-3.636 Z1.910 F4800.000 A234.244 (d: 0.4104)
(infill path, length: 2)
G1 X9.394 Y-3.636 Z1.910 F4800.000 A234.974 (d: 18.788)
(connection path, length: 2)
G1 X9.394 Y-4.046 Z1.910 F4800.000 A234.990 (d: 0.4104)
(infill path, length: 2)
G1 X-9.394 Y-4.046 Z1.910 F4800.000 A235.719 (d: 18.788)
(connection path, length: 2)
G1 X-9.394 Y-4.457 Z1.910 F4800.000 A235.735 (d: 0.4104)
(infill path, length: 2)
G1 X9.394 Y-4.457 Z1.910 F4800.000 A236.464 (d: 18.788)
(connection path, length: 2)
G1 X9.394 Y-4.867 Z1.910 F4800.000 A236.480 (d: 0.4104)
(infill path, length: 2)
G1 X-9.394 Y-4.867 Z1.910 F4800.000 A237.210 (d: 18.788)
(connection path, length: 2)
G1 X-9.394 Y-5.278 Z1.910 F4800.000 A237.226 (d: 0.4104)
(infill path, length: 2)
G1 X9.394 Y-5.278 Z1.910 F4800.000 A237.955 (d: 18.788)
(connection path, length: 2)
G1 X9.394 Y-5.688 Z1.910 F4800.000 A237.971 (d: 0.4104)
(infill path, length: 2)
G1 X-9.394 Y-5.688 Z1.910 F4800.000 A238.700 (d: 18.788)
(connection path, length: 2)
G1 X-9.394 Y-6.098 Z1.910 F4800.000 A238.716 (d: 0.4104)
(infill path, length: 2)
G1 X9.394 Y-6.098 Z1.910 F4800.000 A239.446 (d: 18.788)
(connection path, length: 2)
G1 X9.394 Y-6.509 Z1.910 F4800.000 A239.462 (d: 0.4104)
(infill path, length: 2)
G1 X-9.394 Y-6.509 Z1.910 F4800.000 A240.191 (d: 18.788)
(connection path, length: 2)
G1 X-9.394 Y-6.919 Z1.910 F4800.000 A240.207 (d: 0.4104)
(infill path, length: 2)
G1 X9.394 Y-6.919 Z1.910 F4800.000 A240.936 (d: 18.788)
(connection path, length: 2)
G1 X9.394 Y-7.330 Z1.910 F4800.000 A240.952 (d: 0.4104)
(infill path, length: 2)
G1 X-9.394 Y-7.330 Z1.910 F4800.000 A241.682 (d: 18.788)
(connection path, length: 2)
G1 X-9.394 Y-7.740 Z1.910 F4800.000 A241.697 (d: 0.4104)
(infill path, length: 2)
G1 X9.394 Y-7.740 Z1.910 F4800.000 A242.427 (d: 18.788)
(connection path, length: 2)
G1 X9.394 Y-8.150 Z1.910 F4800.000 A242.443 (d: 0.4104)
(infill path, length: 2)
G1 X-9.394 Y-8.150 Z1.910 F4800.000 A243.172 (d: 18.788)
(connection path, length: 2)
G1 X-9.394 Y-8.561 Z1.910 F4800.000 A243.188 (d: 0.4104)
(infill path, length: 2)
G1 X9.394 Y-8.561 Z1.910 F4800.000 A243.917 (d: 18.788)
(connection path, length: 2)
G1 X9.394 Y-8.971 Z1.910 F4800.000 A243.933 (d: 0.4104)
(infill path, length: 2)
G1 X-9.394 Y-8.971 Z1.910 F4800.000 A244.663 (d: 18.788)
(connection path, length: 2)
G1 X-9.394 Y-9.382 Z1.910 F4800.000 A244.679 (d: 0.4104)
(infill path, length: 2)
G1 X9.394 Y-9.382 Z1.910 F4800.000 A245.408 (d: 18.788)
G1 F1200.000 A244.408 (snort)


(Slice 5, 1 Extruder) 
(Layer Height: 	0.270)
(Layer Width: 	0.432)
G1 Z1.910 F1380.000 (move Z)
(insets: 0)
(infills: 0)
(inset path, length: 5)
G1 X9.394 Y9.394 Z2.180 F6000.000 (move into position)
G1 F1200.000 A245.408 (squirt)
G1 X9.394 Y-9.394 Z2.180 F4800.000 A246.137 (d: 18.788)
G1 X-9.394 Y-9.394 Z2.180 F4800.000 A246.867 (d: 18.788)
G1 X-9.394 Y9.394 Z2.180 F4800.000 A247.596 (d: 18.788)
G1 X9.394 Y9.394 Z2.180 F4800.000 A248.326 (d: 18.788)
(connection path, length: 2)
G1 X9.783 Y9.783 Z2.180 F4800.000 A248.347 (d: 0.550129)
(inset path, length: 5)
G1 X9.783 Y-9.783 Z2.180 F2100.000 A249.107 (d: 19.566)
G1 X-9.783 Y-9.783 Z2.180 F2100.000 A249.866 (d: 19.566)
G1 X-9.783 Y9.783 Z2.180 F2100.000 A250.626 (d: 19.566)
G1 X9.783 Y9.783 Z2.180 F2100.000 A251.385 (d: 19.566)
(connection path, length: 2)
G1 X9.086 Y9.394 Z2.180 F4800.000 A251.416 (d: 0.797854)
(infill path, length: 2)
G1 X9.086 Y-9.394 Z2.180 F4800.000 A252.146 (d: 18.788)
(connection path, length: 2)
G1 X8.676 Y-9.394 Z2.180 F4800.000 A252.162 (d: 0.4104)
(infill path, length: 2)
G1 X8.676 Y9.394 Z2.180 F4800.000 A252.891 (d: 18.788)
(connection path, length: 2)
G1 X8.266 Y9.394 Z2.180 F4800.000 A252.907 (d: 0.4104)
(infill path, length: 2)
G1 X8.266 Y-9.394 Z2.180 F4800.000 A253.636 (d: 18.788)
(connection path, length: 2)
G1 X7.855 Y-9.394 Z2.180 F4800.000 A253.652 (d: 0.4104)
(infill path, length: 2)
G1 X7.855 Y9.394 Z2.180 F4800.000 A254.382 (d: 18.788)
(connection path, length: 2)
G1 X7.445 Y9.394 Z2.180 F4800.000 A254.397 (d: 0.4104)
(infill path, length: 2)
G1 X7.445 Y-9.394 Z2.180 F4800.000 A255.127 (d: 18.788)
(connection path, length: 2)
G1 X7.034 Y-9.394 Z2.180 F4800.000 A255.143 (d: 0.4104)
(infill path, length: 2)
G1 X7.034 Y9.394 Z2.180 F4800.000 A255.872 (d: 18.788)
(connection path, length: 2)
G1 X6.624 Y9.394 Z2.180 F4800.000 A255.888 (d: 0.4104)
(infill path, length: 2)
G1 X6.624 Y-9.394 Z2.180 F4800.000 A256.617 (d: 18.788)
(connection path, length: 2)
G1 X6.214 Y-9.394 Z2.180 F4800.000 A256.633 (d: 0.4104)
(infill path, length: 2)
G1 X6.214 Y9.394 Z2.180 F4800.000 A257.363 (d: 18.788)
(connection path, length: 2)
G1 X5.803 Y9.394 Z2.180 F4800.000 A257.379 (d: 0.4104)
(infill path, length: 2)
G1 X5.803 Y-9.394 Z2.180 F4800.000 A258.108 (d: 18.788)
(connection path, length: 2)
G1 X5.393 Y-9.394 Z2.180 F4800.000 A258.124 (d: 0.4104)
(infill path, length: 2)
G1 X5.393 Y9.394 Z2.180 F4800.000 A258.853 (d: 18.788)
(connection path, length: 2)
G1 X4.982 Y9.394 Z2.180 F4800.000 A258.869 (d: 0.4104)
(infill path, length: 2)
G1 X4.982 Y-9.394 Z2.180 F4800.000 A259.599 (d: 18.788)
(connection path, length: 2)
G1 X4.572 Y-9.394 Z2.180 F4800.000 A259.615 (d: 0.4104)
(infill path, length: 2)
G1 X4.572 Y9.394 Z2.180 F4800.000 A260.344 (d: 18.788)
(connection path, length: 2)
G1 X4.162 Y9.394 Z2.180 F4800.000 A260.360 (d: 0.4104)
(infill path, length: 2)
G1 X4.162 Y-9.394 Z2.180 F4800.000 A261.089 (d: 18.788)
(connection path, length: 2)
G1 X3.751 Y-9.394 Z2.180 F4800.000 A261.105 (d: 0.4104)
(infill path, length: 2)
G1 X3.751 Y9.394 Z2.180 F4800.000 A261.835 (d: 18.788)
(connection path, length: 2)
G1 X3.341 Y9.394 Z2.180 F4800.000 A261.851 (d: 0.4104)
(infill path, length: 2)
G1 X3.341 Y-9.394 Z2.180 F4800.000 A262.580 (d: 18.788)
(connection path, length: 2)
G1 X2.930 Y-9.394 Z2.180 F4800.000 A262.596 (d: 0.4104)
(infill path, length: 2)
G1 X2.930 Y9.394 Z2.180 F4800.000 A263.325 (d: 18.788)
(connection path, length: 2)
G1 X2.520 Y9.394 Z2.180 F4800.000 A263.341 (d: 0.4104)
(infill path, length: 2)
G1 X2.520 Y-9.394 Z2.180 F4800.000 A264.070 (d: 18.788)
(connection path, length: 2)
G1 X2.110 Y-9.394 Z2.180 F4800.000 A264.086 (d: 0.4104)
(infill path, length: 2)
G1 X2.110 Y9.394 Z2.180 F4800.000 A264.816 (d: 18.788)
(connection path, length: 2)
G1 X1.699 Y9.394 Z2.180 F4800.000 A264.832 (d: 0.4104)
(infill path, length: 2)
G1 X1.699 Y-9.394 Z2.180 F4800.000 A265.561 (d: 18.788)
(connection path, length: 2)
G1 X1.289 Y-9.394 Z2.180 F4800.000 A265.577 (d: 0.4104)
(infill path, length: 2)
G1 X1.289 Y9.394 Z2.180 F4800.000 A266.306 (d: 18.788)
(connection path, length: 2)
G1 X0.878 Y9.394 Z2.180 F4800.000 A266.322 (d: 0.4104)
(infill path, length: 2)
G1 X0.878 Y-9.394 Z2.180 F4800.000 A267.052 (d: 18.788)
(connection path, length: 2)
G1 X0.468 Y-9.394 Z2.180 F4800.000 A267.068 (d: 0.4104)
(infill path, length: 2)
G1 X0.468 Y9.394 Z2.180 F4800.000 A267.797 (d: 18.788)
(connection path, length: 2)
G1 X0.058 Y9.394 Z2.180 F4800.000 A267.813 (d: 0.4104)
(infill path, length: 2)
G1 X0.058 Y-9.394 Z2.180 F4800.000 A268.542 (d: 18.788)
(connection path, length: 2)
G1 X-0.353 Y-9.394 Z2.180 F4800.000 A268.558 (d: 0.4104)
(infill path, length: 2)
G1 X-0.353 Y9.394 Z2.180 F4800.000 A269.288 (d: 18.788)
(connection path, length: 2)
G1 X-0.763 Y9.394 Z2.180 F4800.000 A269.304 (d: 0.4104)
(infill path, length: 2)
G1 X-0.763 Y-9.394 Z2.180 F4800.000 A270.033 (d: 18.788)
(connection path, length: 2)
G1 X-1.174 Y-9.394 Z2.180 F4800.000 A270.049 (d: 0.4104)
(infill path, length: 2)
G1 X-1.174 Y9.394 Z2.180 F4800.000 A270.778 (d: 18.788)
(connection path, length: 2)
G1 X-1.584 Y9.394 Z2.180 F4800.000 A270.794 (d: 0.4104)
(infill path, length: 2)
G1 X-1.584 Y-9.394 Z2.180 F4800.000 A271.524 (d: 18.788)
(connection path, length: 2)
G1 X-1.994 Y-9.394 Z2.180 F4800.000 A271.539 (d: 0.4104)
(infill path, length: 2)
G1 X-1.994 Y9.394 Z2.180 F4800.000 A272.269 (d: 18.788)
(connection path, length: 2)
G1 X-2.405 Y9.394 Z2.180 F4800.000 A272.285 (d: 0.4104)
(infill path, length: 2)
G1 X-2.405 Y-9.394 Z2.180 F4800.000 A273.014 (d: 18.788)
(connection path, length: 2)
G1 X-2.815 Y-9.394 Z2.180 F4800.000 A273.030 (d: 0.4104)
(infill path, length: 2)
G1 X-2.815 Y9.394 Z2.180 F4800.000 A273.759 (d: 18.788)
(connection path, length: 2)
G1 X-3.226 Y9.394 Z2.180 F4800.000 A273.775 (d: 0.4104)
(infill path, length: 2)
G1 X-3.226 Y-9.394 Z2.180 F4800.000 A274.505 (d: 18.788)
(connection path, length: 2)
G1 X-3.636 Y-9.394 Z2.180 F4800.000 A274.521 (d: 0.4104)
(infill path, length: 2)
G1 X-3.636 Y9.394 Z2.180 F4800.000 A275.250 (d: 18.788)
(connection path, length: 2)
G1 X-4.046 Y9.394 Z2.180 F4800.000 A275.266 (d: 0.4104)
(infill path, length: 2)
G1 X-4.046 Y-9.394 Z2.180 F4800.000 A275.995 (d: 18.788)
(connection path, length: 2)
G1 X-4.457 Y-9.394 Z2.180 F4800.000 A276.011 (d: 0.4104)
(infill path, length: 2)
G1 X-4.457 Y9.394 Z2.180 F4800.000 A276.741 (d: 18.788)
(connection path, length: 2)
G1 X-4.867 Y9.394 Z2.180 F4800.000 A276.757 (d: 0.4104)
(infill path, length: 2)
G1 X-4.867 Y-9.394 Z2.180 F4800.000 A277.486 (d: 18.788)
(connection path, length: 2)
G1 X-5.278 Y-9.394 Z2.180 F4800.000 A277.502 (d: 0.4104)
(infill path, length: 2)
G1 X-5.278 Y9.394 Z2.180 F4800.000 A278.231 (d: 18.788)
(connection path, length: 2)
G1 X-5.688 Y9.394 Z2.180 F4800.000 A278.247 (d: 0.4104)
(infill path, length: 2)
G1 X-5.688 Y-9.394 Z2.180 F4800.000 A278.977 (d: 18.788)
(connection path, length: 2)
G1 X-6.098 Y-9.394 Z2.180 F4800.000 A278.993 (d: 0.4104)
(infill path, length: 2)
G1 X-6.098 Y9.394 Z2.180 F4800.000 A279.722 (d: 18.788)
(connection path, length: 2)
G1 X-6.509 Y9.394 Z2.180 F4800.000 A279.738 (d: 0.4104)
(infill path, length: 2)
G1 X-6.509 Y-9.394 Z2.180 F4800.000 A280.467 (d: 18.788)
(connection path, length: 2)
G1 X-6.919 Y-9.394 Z2.180 F4800.000 A280.483 (d: 0.4104)
(infill path, length: 2)
G1 X-6.919 Y9.394 Z2.180 F4800.000 A281.213 (d: 18.788)
(connection path, length: 2)
G1 X-7.330 Y9.394 Z2.180 F4800.000 A281.228 (d: 0.4104)
(infill path, length: 2)
G1 X-7.330 Y-9.394 Z2.180 F4800.000 A281.958 (d: 18.788)
(connection path, length: 2)
G1 X-7.740 Y-9.394 Z2.180 F4800.000 A281.974 (d: 0.4104)
(infill path, length: 2)
G1 X-7.740 Y9.394 Z2.180 F4800.000 A282.703 (d: 18.788)
(connection path, length: 2)
G1 X-8.150 Y9.394 Z2.180 F4800.000 A282.719 (d: 0.4104)
(infill path, length: 2)
G1 X-8.150 Y-9.394 Z2.180 F4800.000 A283.448 (d: 18.788)
(connection path, length: 2)
G1 X-8.561 Y-9.394 Z2.180 F4800.000 A283.464 (d: 0.4104)
(infill path, length: 2)
G1 X-8.561 Y9.394 Z2.180 F4800.000 A284.194 (d: 18.788)
(connection path, length: 2)
G1 X-8.971 Y9.394 Z2.180 F4800.000 A284.210 (d: 0.4104)
(infill path, length: 2)
G1 X-8.971 Y-9.394 Z2.180 F4800.000 A284.939 (d: 18.788)
(connection path, length: 2)
G1 X-9.382 Y-9.394 Z2.180 F4800.000 A284.955 (d: 0.4104)
(infill path, length: 2)
G1 X-9.382 Y9.394 Z2.180 F4800.000 A285.684 (d: 18.788)
G1 F1200.000 A284.684 (snort)


(Slice 6, 1 Extruder) 
(Layer Height: 	0.270)
(Layer Width: 	0.432)
G1 Z2.180 F1380.000 (move Z)
(insets: 0)
(infills: 0)
(inset path, length: 5)
G1 F1200.000 A285.684 (squirt)
G1 X-9.394 Y-9.394 Z2.450 F4800.000 A286.414 (d: 18.788)
G1 X9.394 Y-9.394 Z2.450 F4800.000 A287.143 (d: 18.788)
G1 X9.394 Y9.394 Z2.450 F4800.000 A287.872 (d: 18.788)
G1 X-9.394 Y9.394 Z2.450 F4800.000 A288.602 (d: 18.788)
(connection path, length: 2)
G1 X9.783 Y9.783 Z2.450 F4800.000 A289.346 (d: 19.1809)
(inset path, length: 5)
G1 X-9.783 Y9.783 Z2.450 F2100.000 A290.106 (d: 19.566)
G1 X-9.783 Y-9.783 Z2.450 F2100.000 A290.866 (d: 19.566)
G1 X9.783 Y-9.783 Z2.450 F2100.000 A291.625 (d: 19.566)
G1 X9.783 Y9.783 Z2.450 F2100.000 A292.385 (d: 19.566)
(connection path, length: 2)
G1 X9.394 Y9.086 Z2.450 F4800.000 A292.416 (d: 0.797856)
(infill path, length: 2)
G1 X-9.394 Y9.086 Z2.450 F4800.000 A293.145 (d: 18.788)
(connection path, length: 2)
G1 X-9.394 Y8.676 Z2.450 F4800.000 A293.161 (d: 0.4104)
(infill path, length: 2)
G1 X9.394 Y8.676 Z2.450 F4800.000 A293.890 (d: 18.788)
(connection path, length: 2)
G1 X9.394 Y8.266 Z2.450 F4800.000 A293.906 (d: 0.4104)
(infill path, length: 2)
G1 X-9.394 Y8.266 Z2.450 F4800.000 A294.636 (d: 18.788)
(connection path, length: 2)
G1 X-9.394 Y7.855 Z2.450 F4800.000 A294.652 (d: 0.4104)
(infill path, length: 2)
G1 X9.394 Y7.855 Z2.450 F4800.000 A295.381 (d: 18.788)
(connection path, length: 2)
G1 X9.394 Y7.445 Z2.450 F4800.000 A295.397 (d: 0.4104)
(infill path, length: 2)
G1 X-9.394 Y7.445 Z2.450 F4800.000 A296.126 (d: 18.788)
(connection path, length: 2)
G1 X-9.394 Y7.034 Z2.450 F4800.000 A296.142 (d: 0.4104)
(infill path, length: 2)
G1 X9.394 Y7.034 Z2.450 F4800.000 A296.872 (d: 18.788)
(connection path, length: 2)
G1 X9.394 Y6.624 Z2.450 F4800.000 A296.888 (d: 0.4104)
(infill path, length: 2)
G1 X-9.394 Y6.624 Z2.450 F4800.000 A297.617 (d: 18.788)
(connection path, length: 2)
G1 X-9.394 Y6.214 Z2.450 F4800.000 A297.633 (d: 0.4104)
(infill path, length: 2)
G1 X9.394 Y6.214 Z2.450 F4800.000 A298.362 (d: 18.788)
(connection path, length: 2)
G1 X9.394 Y5.803 Z2.450 F4800.000 A298.378 (d: 0.4104)
(infill path, length: 2)
G1 X-9.394 Y5.803 Z2.450 F4800.000 A299.108 (d: 18.788)
(connection path, length: 2)
G1 X-9.394 Y5.393 Z2.450 F4800.000 A299.124 (d: 0.4104)
(infill path, length: 2)
G1 X9.394 Y5.393 Z2.450 F4800.000 A299.853 (d: 18.788)
(connection path, length: 2)
G1 X9.394 Y4.982 Z2.450 F4800.000 A299.869 (d: 0.4104)
(infill path, length: 2)
G1 X-9.394 Y4.982 Z2.450 F4800.000 A300.598 (d: 18.788)
(connection path, length: 2)
G1 X-9.394 Y4.572 Z2.450 F4800.000 A300.614 (d: 0.4104)
(infill path, length: 2)
G1 X9.394 Y4.572 Z2.450 F4800.000 A301.343 (d: 18.788)
(connection path, length: 2)
G1 X9.394 Y4.162 Z2.450 F4800.000 A301.359 (d: 0.4104)
(infill path, length: 2)
G1 X-9.394 Y4.162 Z2.450 F4800.000 A302.089 (d: 18.788)
(connection path, length: 2)
G1 X-9.394 Y3.751 Z2.450 F4800.000 A302.105 (d: 0.4104)
(infill path, length: 2)
G1 X9.394 Y3.751 Z2.450 F4800.000 A302.834 (d: 18.788)
(connection path, length: 2)
G1 X9.394 Y3.341 Z2.450 F4800.000 A302.850 (d: 0.4104)
(infill path, length: 2)
G1 X-9.394 Y3.341 Z2.450 F4800.000 A303.579 (d: 18.788)
(connection path, length: 2)
G1 X-9.394 Y2.930 Z2.450 F4800.000 A303.595 (d: 0.4104)
(infill path, length: 2)
G1 X9.394 Y2.930 Z2.450 F4800.000 A304.325 (d: 18.788)
(connection path, length: 2)
G1 X9.394 Y2.520 Z2.450 F4800.000 A304.341 (d: 0.4104)
(infill path, length: 2)
G1 X-9.394 Y2.520 Z2.450 F4800.000 A305.070 (d: 18.788)
(connection path, length: 2)
G1 X-9.394 Y2.110 Z2.450 F4800.000 A305.086 (d: 0.4104)
(infill path, length: 2)
G1 X9.394 Y2.110 Z2.450 F4800.000 A305.815 (d: 18.788)
(connection path, length: 2)
G1 X9.394 Y1.699 Z2.450 F4800.000 A305.831 (d: 0.4104)
(infill path, length: 2)
G1 X-9.394 Y1.699 Z2.450 F4800.000 A306.561 (d: 18.788)
(connection path, length: 2)
G1 X-9.394 Y1.289 Z2.450 F4800.000 A306.577 (d: 0.4104)
(infill path, length: 2)
G1 X9.394 Y1.289 Z2.450 F4800.000 A307.306 (d: 18.788)
(connection path, length: 2)
G1 X9.394 Y0.878 Z2.450 F4800.000 A307.322 (d: 0.4104)
(infill path, length: 2)
G1 X-9.394 Y0.878 Z2.450 F4800.000 A308.051 (d: 18.788)
(connection path, length: 2)
G1 X-9.394 Y0.468 Z2.450 F4800.000 A308.067 (d: 0.4104)
(infill path, length: 2)
G1 X9.394 Y0.468 Z2.450 F4800.000 A308.797 (d: 18.788)
(connection path, length: 2)
G1 X9.394 Y0.058 Z2.450 F4800.000 A308.812 (d: 0.4104)
(infill path, length: 2)
G1 X-9.394 Y0.058 Z2.450 F4800.000 A309.542 (d: 18.788)
(connection path, length: 2)
G1 X-9.394 Y-0.353 Z2.450 F4800.000 A309.558 (d: 0.4104)
(infill path, length: 2)
G1 X9.394 Y-0.353 Z2.450 F4800.000 A310.287 (d: 18.788)
(connection path, length: 2)
G1 X9.394 Y-0.763 Z2.450 F4800.000 A310.303 (d: 0.4104)
(infill path, length: 2)
G1 X-9.394 Y-0.763 Z2.450 F4800.000 A311.032 (d: 18.788)
(connection path, length: 2)
G1 X-9.394 Y-1.174 Z2.450 F4800.000 A311.048 (d: 0.4104)
(infill path, length: 2)
G1 X9.394 Y-1.174 Z2.450 F4800.000 A311.778 (d: 18.788)
(connection path, length: 2)
G1 X9.394 Y-1.584 Z2.450 F4800.000 A311.794 (d: 0.4104)
(infill path, length: 2)
G1 X-9.394 Y-1.584 Z2.450 F4800.000 A312.523 (d: 18.788)
(connection path, length: 2)
G1 X-9.394 Y-1.994 Z2.450 F4800.000 A312.539 (d: 0.4104)
(infill path, length: 2)
G1 X9.394 Y-1.994 Z2.450 F4800.000 A313.268 (d: 18.788)
(connection path, length: 2)
G1 X9.394 Y-2.405 Z2.450 F4800.000 A313.284 (d: 0.4104)
(infill path, length: 2)
G1 X-9.394 Y-2.405 Z2.450 F4800.000 A314.014 (d: 18.788)
(connection path, length: 2)
G1 X-9.394 Y-2.815 Z2.450 F4800.000 A314.030 (d: 0.4104)
(infill path, length: 2)
G1 X9.394 Y-2.815 Z2.450 F4800.000 A314.759 (d: 18.788)
(connection path, length: 2)
G1 X9.394 Y-3.226 Z2.450 F4800.000 A314.775 (d: 0.4104)
(infill path, length: 2)
G1 X-9.394 Y-3.226 Z2.450 F4800.000 A315.504 (d: 18.788)
(connection path, length: 2)
G1 X-9.394 Y-3.636 Z2.450 F4800.000 A315.520 (d: 0.4104)
(infill path, length: 2)
G1 X9.394 Y-3.636 Z2.450 F4800.000 A316.250 (d: 18.788)
(connection path, length: 2)
G1 X9.394 Y-4.046 Z2.450 F4800.000 A316.266 (d: 0.4104)
(infill path, length: 2)
G1 X-9.394 Y-4.046 Z2.450 F4800.000 A316.995 (d: 18.788)
(connection path, length: 2)
G1 X-9.394 Y-4.457 Z2.450 F4800.000 A317.011 (d: 0.4104)
(infill path, length: 2)
G1 X9.394 Y-4.457 Z2.450 F4800.000 A317.740 (d: 18.788)
(connection path, length: 2)
G1 X9.394 Y-4.867 Z2.450 F4800.000 A317.756 (d: 0.4104)
(infill path, length: 2)
G1 X-9.394 Y-4.867 Z2.450 F4800.000 A318.486 (d: 18.788)
(connection path, length: 2)
G1 X-9.394 Y-5.278 Z2.450 F4800.000 A318.501 (d: 0.4104)
(infill path, length: 2)
G1 X9.394 Y-5.278 Z2.450 F4800.000 A319.231 (d: 18.788)
(connection path, length: 2)
G1 X9.394 Y-5.688 Z2.450 F4800.000 A319.247 (d: 0.4104)
(infill path, length: 2)
G1 X-9.394 Y-5.688 Z2.450 F4800.000 A319.976 (d: 18.788)
(connection path, length: 2)
G1 X-9.394 Y-6.098 Z2.450 F4800.000 A319.992 (d: 0.4104)
(infill path, length: 2)
G1 X9.394 Y-6.098 Z2.450 F4800.000 A320.721 (d: 18.788)
(connection path, length: 2)
G1 X9.394 Y-6.509 Z2.450 F4800.000 A320.737 (d: 0.4104)
(infill path, length: 2)
G1 X-9.394 Y-6.509 Z2.450 F4800.000 A321.467 (d: 18.788)
(connection path, length: 2)
G1 X-9.394 Y-6.919 Z2.450 F4800.000 A321.483 (d: 0.4104)
(infill path, length: 2)
G1 X9.394 Y-6.919 Z2.450 F4800.000 A322.212 (d: 18.788)
(connection path, length: 2)
G1 X9.394 Y-7.330 Z2.450 F4800.000 A322.228 (d: 0.4104)
(infill path, length: 2)
G1 X-9.394 Y-7.330 Z2.450 F4800.000 A322.957 (d: 18.788)
(connection path, length: 2)
G1 X-9.394 Y-7.740 Z2.450 F4800.000 A322.973 (d: 0.4104)
(infill path, length: 2)
G1 X9.394 Y-7.740 Z2.450 F4800.000 A323.703 (d: 18.788)
(connection path, length: 2)
G1 X9.394 Y-8.150 Z2.450 F4800.000 A323.719 (d: 0.4104)
(infill path, length: 2)
G1 X-9.394 Y-8.150 Z2.450 F4800.000 A324.448 (d: 18.788)
(connection path, length: 2)
G1 X-9.394 Y-8.561 Z2.450 F4800.000 A324.464 (d: 0.4104)
(infill path, length: 2)
G1 X9.394 Y-8.561 Z2.450 F4800.000 A325.193 (d: 18.788)
(connection path, length: 2)
G1 X9.394 Y-8.971 Z2.450 F4800.000 A325.209 (d: 0.4104)
(infill path, length: 2)
G1 X-9.394 Y-8.971 Z2.450 F4800.000 A325.939 (d: 18.788)
(connection path, length: 2)
G1 X-9.394 Y-9.382 Z2.450 F4800.000 A325.955 (d: 0.4104)
(infill path, length: 2)
G1 X9.394 Y-9.382 Z2.450 F4800.000 A326.684 (d: 18.788)
G1 F1200.000 A325.684 (snort)


(Slice 7, 1 Extruder) 
(Layer Height: 	0.270)
(Layer Width: 	0.432)
G1 Z2.450 F1380.000 (move Z)
(insets: 0)
(infills: 0)
(inset path, length: 5)
G1 F1200.000 A326.684 (squirt)
G1 X9.394 Y9.394 Z2.720 F4800.000 A327.413 (d: 18.788)
G1 X-9.394 Y9.394 Z2.720 F4800.000 A328.142 (d: 18.788)
G1 X-9.394 Y-9.394 Z2.720 F4800.000 A328.872 (d: 18.788)
G1 X9.394 Y-9.394 Z2.720 F4800.000 A329.601 (d: 18.788)
(connection path, length: 2)
G1 X9.783 Y9.783 Z2.720 F4800.000 A330.346 (d: 19.1809)
(inset path, length: 5)
G1 X9.783 Y-9.783 Z2.720 F2100.000 A331.105 (d: 19.566)
G1 X-9.783 Y-9.783 Z2.720 F2100.000 A331.865 (d: 19.566)
G1 X-9.783 Y9.783 Z2.720 F2100.000 A332.624 (d: 19.566)
G1 X9.783 Y9.783 Z2.720 F2100.000 A333.384 (d: 19.566)
(connection path, length: 2)
G1 X9.086 Y9.394 Z2.720 F4800.000 A333.415 (d: 0.797854)
(infill path, length: 2)
G1 X9.086 Y-9.394 Z2.720 F4800.000 A334.144 (d: 18.788)
(connection path, length: 2)
G1 X8.676 Y-9.394 Z2.720 F4800.000 A334.160 (d: 0.4104)
(infill path, length: 2)
G1 X8.676 Y9.394 Z2.720 F4800.000 A334.889 (d: 18.788)
(connection path, length: 2)
G1 X8.266 Y9.394 Z2.720 F4800.000 A334.905 (d: 0.4104)
(infill path, length: 2)
G1 X8.266 Y-9.394 Z2.720 F4800.000 A335.635 (d: 18.788)
(connection path, length: 2)
G1 X7.855 Y-9.394 Z2.720 F4800.000 A335.651 (d: 0.4104)
(infill path, length: 2)
G1 X7.855 Y9.394 Z2.720 F4800.000 A336.380 (d: 18.788)
(connection path, length: 2)
G1 X7.445 Y9.394 Z2.720 F4800.000 A336.396 (d: 0.4104)
(infill path, length: 2)
G1 X7.445 Y-9.394 Z2.720 F4800.000 A337.125 (d: 18.788)
(connection path, length: 2)
G1 X7.034 Y-9.394 Z2.720 F4800.000 A337.141 (d: 0.4104)
(infill path, length: 2)
G1 X7.034 Y9.394 Z2.720 F4800.000 A337.871 (d: 18.788)
(connection path, length: 2)
G1 X6.624 Y9.394 Z2.720 F4800.000 A337.887 (d: 0.4104)
(infill path, length: 2)
G1 X6.624 Y-9.394 Z2.720 F4800.000 A338.616 (d: 18.788)
(connection path, length: 2)
G1 X6.214 Y-9.394 Z2.720 F4800.000 A338.632 (d: 0.4104)
(infill path, length: 2)
G1 X6.214 Y9.394 Z2.720 F4800.000 A339.361 (d: 18.788)
(connection path, length: 2)
G1 X5.803 Y9.394 Z2.720 F4800.000 A339.377 (d: 0.4104)
(infill path, length: 2)
G1 X5.803 Y-9.394 Z2.720 F4800.000 A340.107 (d: 18.788)
(connection path, length: 2)
G1 X5.393 Y-9.394 Z2.720 F4800.000 A340.123 (d: 0.4104)
(infill path, length: 2)
G1 X5.393 Y9.394 Z2.720 F4800.000 A340.852 (d: 18.788)
(connection path, length: 2)
G1 X4.982 Y9.394 Z2.720 F4800.000 A340.868 (d: 0.4104)
(infill path, length: 2)
G1 X4.982 Y-9.394 Z2.720 F4800.000 A341.597 (d: 18.788)
(connection path, length: 2)
G1 X4.572 Y-9.394 Z2.720 F4800.000 A341.613 (d: 0.4104)
(infill path, length: 2)
G1 X4.572 Y9.394 Z2.720 F4800.000 A342.343 (d: 18.788)
(connection path, length: 2)
G1 X4.162 Y9.394 Z2.720 F4800.000 A342.358 (d: 0.4104)
(infill path, length: 2)
G1 X4.162 Y-9.394 Z2.720 F4800.000 A343.088 (d: 18.788)
(connection path, length: 2)
G1 X3.751 Y-9.394 Z2.720 F4800.000 A343.104 (d: 0.4104)
(infill path, length: 2)
G1 X3.751 Y9.394 Z2.720 F4800.000 A343.833 (d: 18.788)
(connection path, length: 2)
G1 X3.341 Y9.394 Z2.720 F4800.000 A343.849 (d: 0.4104)
(infill path, length: 2)
G1 X3.341 Y-9.394 Z2.720 F4800.000 A344.578 (d: 18.788)
(connection path, length: 2)
G1 X2.930 Y-9.394 Z2.720 F4800.000 A344.594 (d: 0.4104)
(infill path, length: 2)
G1 X2.930 Y9.394 Z2.720 F4800.000 A345.324 (d: 18.788)
(connection path, length: 2)
G1 X2.520 Y9.394 Z2.720 F4800.000 A345.340 (d: 0.4104)
(infill path, length: 2)
G1 X2.520 Y-9.394 Z2.720 F4800.000 A346.069 (d: 18.788)
(connection path, length: 2)
G1 X2.110 Y-9.394 Z2.720 F4800.000 A346.085 (d: 0.4104)
(infill path, length: 2)
G1 X2.110 Y9.394 Z2.720 F4800.000 A346.814 (d: 18.788)
(connection path, length: 2)
G1 X1.699 Y9.394 Z2.720 F4800.000 A346.830 (d: 0.4104)
(infill path, length: 2)
G1 X1.699 Y-9.394 Z2.720 F4800.000 A347.560 (d: 18.788)
(connection path, length: 2)
G1 X1.289 Y-9.394 Z2.720 F4800.000 A347.576 (d: 0.4104)
(infill path, length: 2)
G1 X1.289 Y9.394 Z2.720 F4800.000 A348.305 (d: 18.788)
(connection path, length: 2)
G1 X0.878 Y9.394 Z2.720 F4800.000 A348.321 (d: 0.4104)
(infill path, length: 2)
G1 X0.878 Y-9.394 Z2.720 F4800.000 A349.050 (d: 18.788)
(connection path, length: 2)
G1 X0.468 Y-9.394 Z2.720 F4800.000 A349.066 (d: 0.4104)
(infill path, length: 2)
G1 X0.468 Y9.394 Z2.720 F4800.000 A349.796 (d: 18.788)
(connection path, length: 2)
G1 X0.058 Y9.394 Z2.720 F4800.000 A349.812 (d: 0.4104)
(infill path, length: 2)
G1 X0.058 Y-9.394 Z2.720 F4800.000 A350.541 (d: 18.788)
(connection path, length: 2)
G1 X-0.353 Y-9.394 Z2.720 F4800.000 A350.557 (d: 0.4104)
(infill path, length: 2)
G1 X-0.353 Y9.394 Z2.720 F4800.000 A351.286 (d: 18.788)
(connection path, length: 2)
G1 X-0.763 Y9.394 Z2.720 F4800.000 A351.302 (d: 0.4104)
(infill path, length: 2)
G1 X-0.763 Y-9.394 Z2.720 F4800.000 A352.032 (d: 18.788)
(connection path, length: 2)
G1 X-1.174 Y-9.394 Z2.720 F4800.000 A352.047 (d: 0.4104)
(infill path, length: 2)
G1 X-1.174 Y9.394 Z2.720 F4800.000 A352.777 (d: 18.788)
(connection path, length: 2)
G1 X-1.584 Y9.394 Z2.720 F4800.000 A352.793 (d: 0.4104)
(infill path, length: 2)
G1 X-1.584 Y-9.394 Z2.720 F4800.000 A353.522 (d: 18.788)
(connection path, length: 2)
G1 X-1.994 Y-9.394 Z2.720 F4800.000 A353.538 (d: 0.4104)
(infill path, length: 2)
G1 X-1.994 Y9.394 Z2.720 F4800.000 A354.267 (d: 18.788)
(connection path, length: 2)
G1 X-2.405 Y9.394 Z2.720 F4800.000 A354.283 (d: 0.4104)
(infill path, length: 2)
G1 X-2.405 Y-9.394 Z2.720 F4800.000 A355.013 (d: 18.788)
(connection path, length: 2)
G1 X-2.815 Y-9.394 Z2.720 F4800.000 A355.029 (d: 0.4104)
(infill path, length: 2)
G1 X-2.815 Y9.394 Z2.720 F4800.000 A355.758 (d: 18.788)
(connection path, length: 2)
G1 X-3.226 Y9.394 Z2.720 F4800.000 A355.774 (d: 0.4104)
(infill path, length: 2)
G1 X-3.226 Y-9.394 Z2.720 F4800.000 A356.503 (d: 18.788)
(connection path, length: 2)
G1 X-3.636 Y-9.394 Z2.720 F4800.000 A356.519 (d: 0.4104)
(infill path, length: 2)
G1 X-3.636 Y9.394 Z2.720 F4800.000 A357.249 (d: 18.788)
(connection path, length: 2)
G1 X-4.046 Y9.394 Z2.720 F4800.000 A357.265 (d: 0.4104)
(infill path, length: 2)
G1 X-4.046 Y-9.394 Z2.720 F4800.000 A357.994 (d: 18.788)
(connection path, length: 2)
G1 X-4.457 Y-9.394 Z2.720 F4800.000 A358.010 (d: 0.4104)
(infill path, length: 2)
G1 X-4.457 Y9.394 Z2.720 F4800.000 A358.739 (d: 18.788)
(connection path, length: 2)
G1 X-4.867 Y9.394 Z2.720 F4800.000 A358.755 (d: 0.4104)
(infill path, length: 2)
G1 X-4.867 Y-9.394 Z2.720 F4800.000 A359.485 (d: 18.788)
(connection path, length: 2)
G1 X-5.278 Y-9.394 Z2.720 F4800.000 A359.501 (d: 0.4104)
(infill path, length: 2)
G1 X-5.278 Y9.394 Z2.720 F4800.000 A360.230 (d: 18.788)
(connection path, length: 2)
G1 X-5.688 Y9.394 Z2.720 F4800.000 A360.246 (d: 0.4104)
(infill path, length: 2)
G1 X-5.688 Y-9.394 Z2.720 F4800.000 A360.975 (d: 18.788)
(connection path, length: 2)
G1 X-6.098 Y-9.394 Z2.720 F4800.000 A360.991 (d: 0.4104)
(infill path, length: 2)
G1 X-6.098 Y9.394 Z2.720 F4800.000 A361.721 (d: 18.788)
(connection path, length: 2)
G1 X-6.509 Y9.394 Z2.720 F4800.000 A361.736 (d: 0.4104)
(infill path, length: 2)
G1 X-6.509 Y-9.394 Z2.720 F4800.000 A362.466 (d: 18.788)
(connection path, length: 2)
G1 X-6.919 Y-9.394 Z2.720 F4800.000 A362.482 (d: 0.4104)
(infill path, length: 2)
G1 X-6.919 Y9.394 Z2.720 F4800.000 A363.211 (d: 18.788)
(connection path, length: 2)
G1 X-7.330 Y9.394 Z2.720 F4800.000 A363.227 (d: 0.4104)
(infill path, length: 2)
G1 X-7.330 Y-9.394 Z2.720 F4800.000 A363.956 (d: 18.788)
(connection path, length: 2)
G1 X-7.740 Y-9.394 Z2.720 F4800.000 A363.972 (d: 0.4104)
(infill path, length: 2)
G1 X-7.740 Y9.394 Z2.720 F4800.000 A364.702 (d: 18.788)
(connection path, length: 2)
G1 X-8.150 Y9.394 Z2.720 F4800.000 A364.718 (d: 0.4104)
(infill path, length: 2)
G1 X-8.150 Y-9.394 Z2.720 F4800.000 A365.447 (d: 18.788)
(connection path, length: 2)
G1 X-8.561 Y-9.394 Z2.720 F4800.000 A365.463 (d: 0.4104)
(infill path, length: 2)
G1 X-8.561 Y9.394 Z2.720 F4800.000 A366.192 (d: 18.788)
(connection path, length: 2)
G1 X-8.971 Y9.394 Z2.720 F4800.000 A366.208 (d: 0.4104)
(infill path, length: 2)
G1 X-8.971 Y-9.394 Z2.720 F4800.000 A366.938 (d: 18.788)
(connection path, length: 2)
G1 X-9.382 Y-9.394 Z2.720 F4800.000 A366.954 (d: 0.4104)
(infill path, length: 2)
G1 X-9.382 Y9.394 Z2.720 F4800.000 A367.683 (d: 18.788)
G1 F1200.000 A366.683 (snort)


(Slice 8, 1 Extruder) 
(Layer Height: 	0.270)
(Layer Width: 	0.432)
G1 Z2.720 F1380.000 (move Z)
(insets: 0)
(infills: 0)
(inset path, length: 5)
G1 X9.394 Y9.394 Z2.990 F6000.000 (move into position)
G1 F1200.000 A367.683 (squirt)
G1 X9.394 Y-9.394 Z2.990 F4800.000 A368.412 (d: 18.788)
G1 X-9.394 Y-9.394 Z2.990 F4800.000 A369.142 (d: 18.788)
G1 X-9.394 Y9.394 Z2.990 F4800.000 A369.871 (d: 18.788)
G1 X9.394 Y9.394 Z2.990 F4800.000 A370.600 (d: 18.788)
(connection path, length: 2)
G1 X9.783 Y9.783 Z2.990 F4800.000 A370.622 (d: 0.550129)
(inset path, length: 5)
G1 X9.783 Y-9.783 Z2.990 F2100.000 A371.381 (d: 19.566)
G1 X-9.783 Y-9.783 Z2.990 F2100.000 A372.141 (d: 19.566)
G1 X-9.783 Y9.783 Z2.990 F2100.000 A372.901 (d: 19.566)
G1 X9.783 Y9.783 Z2.990 F2100.000 A373.660 (d: 19.566)
(connection path, length: 2)
G1 X9.394 Y6.624 Z2.990 F4800.000 A373.784 (d: 3.18286)
(infill path, length: 2)
G1 X-9.394 Y6.624 Z2.990 F4800.000 A374.513 (d: 18.788)
(connection path, length: 2)
G1 X-9.394 Y2.520 Z2.990 F4800.000 A374.672 (d: 4.104)
(infill path, length: 2)
G1 X9.394 Y2.520 Z2.990 F4800.000 A375.402 (d: 18.788)
(connection path, length: 2)
G1 X9.394 Y-1.584 Z2.990 F4800.000 A375.561 (d: 4.104)
(infill path, length: 2)
G1 X-9.394 Y-1.584 Z2.990 F4800.000 A376.290 (d: 18.788)
(connection path, length: 2)
G1 X-9.394 Y-5.688 Z2.990 F4800.000 A376.450 (d: 4.104)
(infill path, length: 2)
G1 X9.394 Y-5.688 Z2.990 F4800.000 A377.179 (d: 18.788)
G1 F1200.000 A376.179 (snort)


(Slice 9, 1 Extruder) 
(Layer Height: 	0.270)
(Layer Width: 	0.432)
G1 Z2.990 F1380.000 (move Z)
(insets: 0)
(infills: 0)
(inset path, length: 5)
G1 X-9.394 Y-9.394 Z3.260 F6000.000 (move into position)
G1 F1200.000 A377.179 (squirt)
G1 X9.394 Y-9.394 Z3.260 F4800.000 A377.909 (d: 18.788)
G1 X9.394 Y9.394 Z3.260 F4800.000 A378.638 (d: 18.788)
G1 X-9.394 Y9.394 Z3.260 F4800.000 A379.367 (d: 18.788)
G1 X-9.394 Y-9.394 Z3.260 F4800.000 A380.097 (d: 18.788)
(connection path, length: 2)
G1 X9.783 Y9.783 Z3.260 F4800.000 A381.149 (d: 27.1204)
(inset path, length: 5)
G1 X9.783 Y-9.783 Z3.260 F2100.000 A381.909 (d: 19.566)
G1 X-9.783 Y-9.783 Z3.260 F2100.000 A382.669 (d: 19.566)
G1 X-9.783 Y9.783 Z3.260 F2100.000 A383.428 (d: 19.566)
G1 X9.783 Y9.783 Z3.260 F2100.000 A384.188 (d: 19.566)
(connection path, length: 2)
G1 X6.624 Y9.394 Z3.260 F4800.000 A384.311 (d: 3.18286)
(infill path, length: 2)
G1 X6.624 Y-9.394 Z3.260 F4800.000 A385.041 (d: 18.788)
(connection path, length: 2)
G1 X2.520 Y-9.394 Z3.260 F4800.000 A385.200 (d: 4.104)
(infill path, length: 2)
G1 X2.520 Y9.394 Z3.260 F4800.000 A385.929 (d: 18.788)
(connection path, length: 2)
G1 X-1.584 Y9.394 Z3.260 F4800.000 A386.089 (d: 4.104)
(infill path, length: 2)
G1 X-1.584 Y-9.394 Z3.260 F4800.000 A386.818 (d: 18.788)
(connection path, length: 2)
G1 X-5.688 Y-9.394 Z3.260 F4800.000 A386.977 (d: 4.104)
(infill path, length: 2)
G1 X-5.688 Y9.394 Z3.260 F4800.000 A387.707 (d: 18.788)
G1 F1200.000 A386.707 (snort)


(Slice 10, 1 Extruder) 
(Layer Height: 	0.270)
(Layer Width: 	0.432)
G1 Z3.260 F1380.000 (move Z)
(insets: 0)
(infills: 0)
(inset path, length: 5)
G1 X9.394 Y9.394 Z3.530 F6000.000 (move into position)
G1 F1200.000 A387.707 (squirt)
G1 X9.394 Y-9.394 Z3.530 F4800.000 A388.436 (d: 18.788)
G1 X-9.394 Y-9.394 Z3.530 F4800.000 A389.166 (d: 18.788)
G1 X-9.394 Y9.394 Z3.530 F4800.000 A389.895 (d: 18.788)
G1 X9.394 Y9.394 Z3.530 F4800.000 A390.624 (d: 18.788)
(connection path, length: 2)
G1 X9.783 Y9.783 Z3.530 F4800.000 A390.646 (d: 0.550129)
(inset path, length: 5)
G1 X9.783 Y-9.783 Z3.530 F2100.000 A391.405 (d: 19.566)
G1 X-9.783 Y-9.783 Z3.530 F2100.000 A392.165 (d: 19.566)
G1 X-9.783 Y9.783 Z3.530 F2100.000 A392.924 (d: 19.566)
G1 X9.783 Y9.783 Z3.530 F2100.000 A393.684 (d: 19.566)
(connection path, length: 2)
G1 X9.394 Y6.624 Z3.530 F4800.000 A393.808 (d: 3.18286)
(infill path, length: 2)
G1 X-9.394 Y6.624 Z3.530 F4800.000 A394.537 (d: 18.788)
(connection path, length: 2)
G1 X-9.394 Y2.520 Z3.530 F4800.000 A394.696 (d: 4.104)
(infill path, length: 2)
G1 X9.394 Y2.520 Z3.530 F4800.000 A395.426 (d: 18.788)
(connection path, length: 2)
G1 X9.394 Y-1.584 Z3.530 F4800.000 A395.585 (d: 4.104)
(infill path, length: 2)
G1 X-9.394 Y-1.584 Z3.530 F4800.000 A396.314 (d: 18.788)
(connection path, length: 2)
G1 X-9.394 Y-5.688 Z3.530 F4800.000 A396.474 (d: 4.104)
(infill path, length: 2)
G1 X9.394 Y-5.688 Z3.530 F4800.000 A397.203 (d: 18.788)
G1 F1200.000 A396.203 (snort)


(Slice 11, 1 Extruder) 
(Layer Height: 	0.270)
(Layer Width: 	0.432)
G1 Z3.530 F1380.000 (move Z)
(insets: 0)
(infills: 0)
(inset path, length: 5)
G1 X9.394 Y9.394 Z3.800 F6000.000 (move into position)
G1 F1200.000 A397.203 (squirt)
G1 X9.394 Y-9.394 Z3.800 F4800.000 A397.932 (d: 18.788)
G1 X-9.394 Y-9.394 Z3.800 F4800.000 A398.662 (d: 18.788)
G1 X-9.394 Y9.394 Z3.800 F4800.000 A399.391 (d: 18.788)
G1 X9.394 Y9.394 Z3.800 F4800.000 A400.120 (d: 18.788)
(connection path, length: 2)
G1 X9.783 Y9.783 Z3.800 F4800.000 A400.142 (d: 0.550129)
(inset path, length: 5)
G1 X9.783 Y-9.783 Z3.800 F2100.000 A400.901 (d: 19.566)
G1 X-9.783 Y-9.783 Z3.800 F2100.000 A401.661 (d: 19.566)
G1 X-9.783 Y9.783 Z3.800 F2100.000 A402.421 (d: 19.566)
G1 X9.783 Y9.783 Z3.800 F2100.000 A403.180 (d: 19.566)
(connection path, length: 2)
G1 X6.624 Y9.394 Z3.800 F4800.000 A403.304 (d: 3.18286)
(infill path, length: 2)
G1 X6.624 Y-9.394 Z3.800 F4800.000 A404.033 (d: 18.788)
(connection path, length: 2)
G1 X2.520 Y-9.394 Z3.800 F4800.000 A404.192 (d: 4.104)
(infill path, length: 2)
G1 X2.520 Y9.394 Z3.800 F4800.000 A404.922 (d: 18.788)
(connection path, length: 2)
G1 X-1.584 Y9.394 Z3.800 F4800.000 A405.081 (d: 4.104)
(infill path, length: 2)
G1 X-1.584 Y-9.394 Z3.800 F4800.000 A405.810 (d: 18.788)
(connection path, length: 2)
G1 X-5.688 Y-9.394 Z3.800 F4800.000 A405.970 (d: 4.104)
(infill path, length: 2)
G1 X-5.688 Y9.394 Z3.800 F4800.000 A406.699 (d: 18.788)
G1 F1200.000 A405.699 (snort)


(Slice 12, 1 Extruder) 
(Layer Height: 	0.270)
(Layer Width: 	0.432)
G1 Z3.800 F1380.000 (move Z)
(insets: 0)
(infills: 0)
(inset path, length: 5)
G1 X9.394 Y9.394 Z4.070 F6000.000 (move into position)
G1 F1200.000 A406.699 (squirt)
G1 X9.394 Y-9.394 Z4.070 F4800.000 A407.429 (d: 18.788)
G1 X-9.394 Y-9.394 Z4.070 F4800.000 A408.158 (d: 18.788)
G1 X-9.394 Y9.394 Z4.070 F4800.000 A408.887 (d: 18.788)
G1 X9.394 Y9.394 Z4.070 F4800.000 A409.617 (d: 18.788)
(connection path, length: 2)
G1 X9.783 Y9.783 Z4.070 F4800.000 A409.638 (d: 0.550129)
(inset path, length: 5)
G1 X9.783 Y-9.783 Z4.070 F2100.000 A410.398 (d: 19.566)
G1 X-9.783 Y-9.783 Z4.070 F2100.000 A411.157 (d: 19.566)
G1 X-9.783 Y9.783 Z4.070 F2100.000 A411.917 (d: 19.566)
G1 X9.783 Y9.783 Z4.070 F2100.000 A412.676 (d: 19.566)
(connection path, length: 2)
G1 X9.394 Y6.624 Z4.070 F4800.000 A412.800 (d: 3.18286)
(infill path, length: 2)
G1 X-9.394 Y6.624 Z4.070 F4800.000 A413.529 (d: 18.788)
(connection path, length: 2)
G1 X-9.394 Y2.520 Z4.070 F4800.000 A413.689 (d: 4.104)
(infill path, length: 2)
G1 X9.394 Y2.520 Z4.070 F4800.000 A414.418 (d: 18.788)
(connection path, length: 2)
G1 X9.394 Y-1.584 Z4.070 F4800.000 A414.577 (d: 4.104)
(infill path, length: 2)
G1 X-9.394 Y-1.584 Z4.070 F4800.000 A415.307 (d: 18.788)
(connection path, length: 2)
G1 X-9.394 Y-5.688 Z4.070 F4800.000 A415.466 (d: 4.104)
(infill path, length: 2)
G1 X9.394 Y-5.688 Z4.070 F4800.000 A416.195 (d: 18.788)
G1 F1200.000 A415.195 (snort)


(Slice 13, 1 Extruder) 
(Layer Height: 	0.270)
(Layer Width: 	0.432)
G1 Z4.070 F1380.000 (move Z)
(insets: 0)
(infills: 0)
(inset path, length: 5)
G1 X9.394 Y9.394 Z4.340 F6000.000 (move into position)
G1 F1200.000 A416.195 (squirt)
G1 X9.394 Y-9.394 Z4.340 F4800.000 A416.925 (d: 18.788)
G1 X-9.394 Y-9.394 Z4.340 F4800.000 A417.654 (d: 18.788)
G1 X-9.394 Y9.394 Z4.340 F4800.000 A418.383 (d: 18.788)
G1 X9.394 Y9.394 Z4.340 F4800.000 A419.113 (d: 18.788)
(connection path, length: 2)
G1 X9.783 Y9.783 Z4.340 F4800.000 A419.134 (d: 0.550129)
(inset path, length: 5)
G1 X9.783 Y-9.783 Z4.340 F2100.000 A419.894 (d: 19.566)
G1 X-9.783 Y-9.783 Z4.340 F2100.000 A420.653 (d: 19.566)
G1 X-9.783 Y9.783 Z4.340 F2100.000 A421.413 (d: 19.566)
G1 X9.783 Y9.783 Z4.340 F2100.000 A422.173 (d: 19.566)
(connection path, length: 2)
G1 X6.624 Y9.394 Z4.340 F4800.000 A422.296 (d: 3.18286)
(infill path, length: 2)
G1 X6.624 Y-9.394 Z4.340 F4800.000 A423.025 (d: 18.788)
(connection path, length: 2)
G1 X2.520 Y-9.394 Z4.340 F4800.000 A423.185 (d: 4.104)
(infill path, length: 2)
G1 X2.520 Y9.394 Z4.340 F4800.000 A423.914 (d: 18.788)
(connection path, length: 2)
G1 X-1.584 Y9.394 Z4.340 F4800.000 A424.073 (d: 4.104)
(infill path, length: 2)
G1 X-1.584 Y-9.394 Z4.340 F4800.000 A424.803 (d: 18.788)
(connection path, length: 2)
G1 X-5.688 Y-9.394 Z4.340 F4800.000 A424.962 (d: 4.104)
(infill path, length: 2)
G1 X-5.688 Y9.394 Z4.340 F4800.000 A425.692 (d: 18.788)
G1 F1200.000 A424.692 (snort)


(Slice 14, 1 Extruder) 
(Layer Height: 	0.270)
(Layer Width: 	0.432)
G1 Z4.340 F1380.000 (move Z)
(insets: 0)
(infills: 0)
(inset path, length: 5)
G1 X-9.394 Y9.394 Z4.610 F6000.000 (move into position)
G1 F1200.000 A425.692 (squirt)
G1 X-9.394 Y-9.394 Z4.610 F4800.000 A426.421 (d: 18.788)
G1 X9.394 Y-9.394 Z4.610 F4800.000 A427.150 (d: 18.788)
G1 X9.394 Y9.394 Z4.610 F4800.000 A427.880 (d: 18.788)
G1 X-9.394 Y9.394 Z4.610 F4800.000 A428.609 (d: 18.788)
(connection path, length: 2)
G1 X9.783 Y9.783 Z4.610 F4800.000 A429.354 (d: 19.1809)
(inset path, length: 5)
G1 X-9.783 Y9.783 Z4.610 F2100.000 A430.113 (d: 19.566)
G1 X-9.783 Y-9.783 Z4.610 F2100.000 A430.873 (d: 19.566)
G1 X9.783 Y-9.783 Z4.610 F2100.000 A431.632 (d: 19.566)
G1 X9.783 Y9.783 Z4.610 F2100.000 A432.392 (d: 19.566)
(connection path, length: 2)
G1 X9.394 Y6.624 Z4.610 F4800.000 A432.516 (d: 3.18286)
(infill path, length: 2)
G1 X-9.394 Y6.624 Z4.610 F4800.000 A433.245 (d: 18.788)
(connection path, length: 2)
G1 X-9.394 Y2.520 Z4.610 F4800.000 A433.404 (d: 4.104)
(infill path, length: 2)
G1 X9.394 Y2.520 Z4.610 F4800.000 A434.134 (d: 18.788)
(connection path, length: 2)
G1 X9.394 Y-1.584 Z4.610 F4800.000 A434.293 (d: 4.104)
(infill path, length: 2)
G1 X-9.394 Y-1.584 Z4.610 F4800.000 A435.022 (d: 18.788)
(connection path, length: 2)
G1 X-9.394 Y-5.688 Z4.610 F4800.000 A435.182 (d: 4.104)
(infill path, length: 2)
G1 X9.394 Y-5.688 Z4.610 F4800.000 A435.911 (d: 18.788)
G1 F1200.000 A434.911 (snort)


(Slice 15, 1 Extruder) 
(Layer Height: 	0.270)
(Layer Width: 	0.432)
G1 Z4.610 F1380.000 (move Z)
(insets: 0)
(infills: 0)
(inset path, length: 5)
G1 X-9.394 Y-9.394 Z4.880 F6000.000 (move into position)
G1 F1200.000 A435.911 (squirt)
G1 X9.394 Y-9.394 Z4.880 F4800.000 A436.640 (d: 18.788)
G1 X9.394 Y9.394 Z4.880 F4800.000 A437.370 (d: 18.788)
G1 X-9.394 Y9.394 Z4.880 F4800.000 A438.099 (d: 18.788)
G1 X-9.394 Y-9.394 Z4.880 F4800.000 A438.828 (d: 18.788)
(connection path, length: 2)
G1 X9.783 Y9.783 Z4.880 F4800.000 A439.881 (d: 27.1204)
(inset path, length: 5)
G1 X9.783 Y-9.783 Z4.880 F2100.000 A440.641 (d: 19.566)
G1 X-9.783 Y-9.783 Z4.880 F2100.000 A441.400 (d: 19.566)
G1 X-9.783 Y9.783 Z4.880 F2100.000 A442.160 (d: 19.566)
G1 X9.783 Y9.783 Z4.880 F2100.000 A442.920 (d: 19.566)
(connection path, length: 2)
G1 X6.624 Y9.394 Z4.880 F4800.000 A443.043 (d: 3.18286)
(infill path, length: 2)
G1 X6.624 Y-9.394 Z4.880 F4800.000 A443.773 (d: 18.788)
(connection path, length: 2)
G1 X2.520 Y-9.394 Z4.880 F4800.000 A443.932 (d: 4.104)
(infill path, length: 2)
G1 X2.520 Y9.394 Z4.880 F4800.000 A444.661 (d: 18.788)
(connection path, length: 2)
G1 X-1.584 Y9.394 Z4.880 F4800.000 A444.821 (d: 4.104)
(infill path, length: 2)
G1 X-1.584 Y-9.394 Z4.880 F4800.000 A445.550 (d: 18.788)
(connection path, length: 2)
G1 X-5.688 Y-9.394 Z4.880 F4800.000 A445.709 (d: 4.104)
(infill path, length: 2)
G1 X-5.688 Y9.394 Z4.880 F4800.000 A446.439 (d: 18.788)
G1 F1200.000 A445.439 (snort)


(Slice 16, 1 Extruder) 
(Layer Height: 	0.270)
(Layer Width: 	0.432)
G1 Z4.880 F1380.000 (move Z)
(insets: 0)
(infills: 0)
(inset path, length: 5)
G1 X-9.394 Y9.394 Z5.150 F6000.000 (move into position)
G1 F1200.000 A446.439 (squirt)
G1 X-9.394 Y-9.394 Z5.150 F4800.000 A447.168 (d: 18.788)
G1 X9.394 Y-9.394 Z5.150 F4800.000 A447.897 (d: 18.788)
G1 X9.394 Y9.394 Z5.150 F4800.000 A448.627 (d: 18.788)
G1 X-9.394 Y9.394 Z5.150 F4800.000 A449.356 (d: 18.788)
(connection path, length: 2)
G1 X9.783 Y9.783 Z5.150 F4800.000 A450.101 (d: 19.1809)
(inset path, length: 5)
G1 X-9.783 Y9.783 Z5.150 F2100.000 A450.860 (d: 19.566)
G1 X-9.783 Y-9.783 Z5.150 F2100.000 A451.620 (d: 19.566)
G1 X9.783 Y-9.783 Z5.150 F2100.000 A452.380 (d: 19.566)
G1 X9.783 Y9.783 Z5.150 F2100.000 A453.139 (d: 19.566)
(connection path, length: 2)
G1 X9.394 Y6.624 Z5.150 F4800.000 A453.263 (d: 3.18286)
(infill path, length: 2)
G1 X-9.394 Y6.624 Z5.150 F4800.000 A453.992 (d: 18.788)
(connection path, length: 2)
G1 X-9.394 Y2.520 Z5.150 F4800.000 A454.151 (d: 4.104)
(infill path, length: 2)
G1 X9.394 Y2.520 Z5.150 F4800.000 A454.881 (d: 18.788)
(connection path, length: 2)
G1 X9.394 Y-1.584 Z5.150 F4800.000 A455.040 (d: 4.104)
(infill path, length: 2)
G1 X-9.394 Y-1.584 Z5.150 F4800.000 A455.769 (d: 18.788)
(connection path, length: 2)
G1 X-9.394 Y-5.688 Z5.150 F4800.000 A455.929 (d: 4.104)
(infill path, length: 2)
G1 X9.394 Y-5.688 Z5.150 F4800.000 A456.658 (d: 18.788)
G1 F1200.000 A455.658 (snort)


(Slice 17, 1 Extruder) 
(Layer Height: 	0.270)
(Layer Width: 	0.432)
G1 Z5.150 F1380.000 (move Z)
(insets: 0)
(infills: 0)
(inset path, length: 5)
G1 X9.394 Y9.394 Z5.420 F6000.000 (move into position)
G1 F1200.000 A456.658 (squirt)
G1 X9.394 Y-9.394 Z5.420 F4800.000 A457.387 (d: 18.788)
G1 X-9.394 Y-9.394 Z5.420 F4800.000 A458.117 (d: 18.788)
G1 X-9.394 Y9.394 Z5.420 F4800.000 A458.846 (d: 18.788)
G1 X9.394 Y9.394 Z5.420 F4800.000 A459.576 (d: 18.788)
(connection path, length: 2)
G1 X9.783 Y9.783 Z5.420 F4800.000 A459.597 (d: 0.550129)
(inset path, length: 5)
G1 X9.783 Y-9.783 Z5.420 F2100.000 A460.357 (d: 19.566)
G1 X-9.783 Y-9.783 Z5.420 F2100.000 A461.116 (d: 19.566)
G1 X-9.783 Y9.783 Z5.420 F2100.000 A461.876 (d: 19.566)
G1 X9.783 Y9.783 Z5.420 F2100.000 A462.635 (d: 19.566)
(connection path, length: 2)
G1 X6.624 Y9.394 Z5.420 F4800.000 A462.759 (d: 3.18286)
(infill path, length: 2)
G1 X6.624 Y-9.394 Z5.420 F4800.000 A463.488 (d: 18.788)
(connection path, length: 2)
G1 X2.520 Y-9.394 Z5.420 F4800.000 A463.648 (d: 4.104)
(infill path, length: 2)
G1 X2.520 Y9.394 Z5.420 F4800.000 A464.377 (d: 18.788)
(connection path, length: 2)
G1 X-1.584 Y9.394 Z5.420 F4800.000 A464.536 (d: 4.104)
(infill path, length: 2)
G1 X-1.584 Y-9.394 Z5.420 F4800.000 A465.266 (d: 18.788)
(connection path, length: 2)
G1 X-5.688 Y-9.394 Z5.420 F4800.000 A465.425 (d: 4.104)
(infill path, length: 2)
G1 X-5.688 Y9.394 Z5.420 F4800.000 A466.154 (d: 18.788)
G1 F1200.000 A465.154 (snort)


(Slice 18, 1 Extruder) 
(Layer Height: 	0.270)
(Layer Width: 	0.432)
G1 Z5.420 F1380.000 (move Z)
(insets: 0)
(infills: 0)
(inset path, length: 5)
G1 X9.394 Y9.394 Z5.690 F6000.000 (move into position)
G1 F1200.000 A466.154 (squirt)
G1 X9.394 Y-9.394 Z5.690 F4800.000 A466.884 (d: 18.788)
G1 X-9.394 Y-9.394 Z5.690 F4800.000 A467.613 (d: 18.788)
G1 X-9.394 Y9.394 Z5.690 F4800.000 A468.342 (d: 18.788)
G1 X9.394 Y9.394 Z5.690 F4800.000 A469.072 (d: 18.788)
(connection path, length: 2)
G1 X9.783 Y9.783 Z5.690 F4800.000 A469.093 (d: 0.550129)
(inset path, length: 5)
G1 X9.783 Y-9.783 Z5.690 F2100.000 A469.853 (d: 19.566)
G1 X-9.783 Y-9.783 Z5.690 F2100.000 A470.612 (d: 19.566)
G1 X-9.783 Y9.783 Z5.690 F2100.000 A471.372 (d: 19.566)
G1 X9.783 Y9.783 Z5.690 F2100.000 A472.131 (d: 19.566)
(connection path, length: 2)
G1 X9.394 Y6.624 Z5.690 F4800.000 A472.255 (d: 3.18286)
(infill path, length: 2)
G1 X-9.394 Y6.624 Z5.690 F4800.000 A472.984 (d: 18.788)
(connection path, length: 2)
G1 X-9.394 Y2.520 Z5.690 F4800.000 A473.144 (d: 4.104)
(infill path, length: 2)
G1 X9.394 Y2.520 Z5.690 F4800.000 A473.873 (d: 18.788)
(connection path, length: 2)
G1 X9.394 Y-1.584 Z5.690 F4800.000 A474.032 (d: 4.104)
(infill path, length: 2)
G1 X-9.394 Y-1.584 Z5.690 F4800.000 A474.762 (d: 18.788)
(connection path, length: 2)
G1 X-9.394 Y-5.688 Z5.690 F4800.000 A474.921 (d: 4.104)
(infill path, length: 2)
G1 X9.394 Y-5.688 Z5.690 F4800.000 A475.650 (d: 18.788)
G1 F1200.000 A474.650 (snort)


(Slice 19, 1 Extruder) 
(Layer Height: 	0.270)
(Layer Width: 	0.432)
G1 Z5.690 F1380.000 (move Z)
(insets: 0)
(infills: 0)
(inset path, length: 5)
G1 X9.394 Y9.394 Z5.960 F6000.000 (move into position)
G1 F1200.000 A475.650 (squirt)
G1 X9.394 Y-9.394 Z5.960 F4800.000 A476.380 (d: 18.788)
G1 X-9.394 Y-9.394 Z5.960 F4800.000 A477.109 (d: 18.788)
G1 X-9.394 Y9.394 Z5.960 F4800.000 A477.839 (d: 18.788)
G1 X9.394 Y9.394 Z5.960 F4800.000 A478.568 (d: 18.788)
(connection path, length: 2)
G1 X9.783 Y9.783 Z5.960 F4800.000 A478.589 (d: 0.550129)
(inset path, length: 5)
G1 X9.783 Y-9.783 Z5.960 F2100.000 A479.349 (d: 19.566)
G1 X-9.783 Y-9.783 Z5.960 F2100.000 A480.108 (d: 19.566)
G1 X-9.783 Y9.783 Z5.960 F2100.000 A480.868 (d: 19.566)
G1 X9.783 Y9.783 Z5.960 F2100.000 A481.628 (d: 19.566)
(connection path, length: 2)
G1 X6.624 Y9.394 Z5.960 F4800.000 A481.751 (d: 3.18286)
(infill path, length: 2)
G1 X6.624 Y-9.394 Z5.960 F4800.000 A482.481 (d: 18.788)
(connection path, length: 2)
G1 X2.520 Y-9.394 Z5.960 F4800.000 A482.640 (d: 4.104)
(infill path, length: 2)
G1 X2.520 Y9.394 Z5.960 F4800.000 A483.369 (d: 18.788)
(connection path, length: 2)
G1 X-1.584 Y9.394 Z5.960 F4800.000 A483.529 (d: 4.104)
(infill path, length: 2)
G1 X-1.584 Y-9.394 Z5.960 F4800.000 A484.258 (d: 18.788)
(connection path, length: 2)
G1 X-5.688 Y-9.394 Z5.960 F4800.000 A484.417 (d: 4.104)
(infill path, length: 2)
G1 X-5.688 Y9.394 Z5.960 F4800.000 A485.147 (d: 18.788)
G1 F1200.000 A484.147 (snort)


(Slice 20, 1 Extruder) 
(Layer Height: 	0.270)
(Layer Width: 	0.432)
G1 Z5.960 F1380.000 (move Z)
(insets: 0)
(infills: 0)
(inset path, length: 5)
G1 X-9.394 Y-9.394 Z6.230 F6000.000 (move into position)
G1 F1200.000 A485.147 (squirt)
G1 X9.394 Y-9.394 Z6.230 F4800.000 A485.876 (d: 18.788)
G1 X9.394 Y9.394 Z6.230 F4800.000 A486.605 (d: 18.788)
G1 X-9.394 Y9.394 Z6.230 F4800.000 A487.335 (d: 18.788)
G1 X-9.394 Y-9.394 Z6.230 F4800.000 A488.064 (d: 18.788)
(connection path, length: 2)
G1 X9.783 Y9.783 Z6.230 F4800.000 A489.117 (d: 27.1204)
(inset path, length: 5)
G1 X9.783 Y-9.783 Z6.230 F2100.000 A489.877 (d: 19.566)
G1 X-9.783 Y-9.783 Z6.230 F2100.000 A490.636 (d: 19.566)
G1 X-9.783 Y9.783 Z6.230 F2100.000 A491.396 (d: 19.566)
G1 X9.783 Y9.783 Z6.230 F2100.000 A492.155 (d: 19.566)
(connection path, length: 2)
G1 X9.394 Y6.624 Z6.230 F4800.000 A492.279 (d: 3.18286)
(infill path, length: 2)
G1 X-9.394 Y6.624 Z6.230 F4800.000 A493.008 (d: 18.788)
(connection path, length: 2)
G1 X-9.394 Y2.520 Z6.230 F4800.000 A493.168 (d: 4.104)
(infill path, length: 2)
G1 X9.394 Y2.520 Z6.230 F4800.000 A493.897 (d: 18.788)
(connection path, length: 2)
G1 X9.394 Y-1.584 Z6.230 F4800.000 A494.056 (d: 4.104)
(infill path, length: 2)
G1 X-9.394 Y-1.584 Z6.230 F4800.000 A494.786 (d: 18.788)
(connection path, length: 2)
G1 X-9.394 Y-5.688 Z6.230 F4800.000 A494.945 (d: 4.104)
(infill path, length: 2)
G1 X9.394 Y-5.688 Z6.230 F4800.000 A495.674 (d: 18.788)
G1 F1200.000 A494.674 (snort)


(Slice 21, 1 Extruder) 
(Layer Height: 	0.270)
(Layer Width: 	0.432)
G1 Z6.230 F1380.000 (move Z)
(insets: 0)
(infills: 0)
(inset path, length: 5)
G1 X-9.394 Y9.394 Z6.500 F6000.000 (move into position)
G1 F1200.000 A495.674 (squirt)
G1 X-9.394 Y-9.394 Z6.500 F4800.000 A496.404 (d: 18.788)
G1 X9.394 Y-9.394 Z6.500 F4800.000 A497.133 (d: 18.788)
G1 X9.394 Y9.394 Z6.500 F4800.000 A497.862 (d: 18.788)
G1 X-9.394 Y9.394 Z6.500 F4800.000 A498.592 (d: 18.788)
(connection path, length: 2)
G1 X9.783 Y9.783 Z6.500 F4800.000 A499.336 (d: 19.1809)
(inset path, length: 5)
G1 X-9.783 Y9.783 Z6.500 F2100.000 A500.096 (d: 19.566)
G1 X-9.783 Y-9.783 Z6.500 F2100.000 A500.856 (d: 19.566)
G1 X9.783 Y-9.783 Z6.500 F2100.000 A501.615 (d: 19.566)
G1 X9.783 Y9.783 Z6.500 F2100.000 A502.375 (d: 19.566)
(connection path, length: 2)
G1 X6.624 Y9.394 Z6.500 F4800.000 A502.498 (d: 3.18286)
(infill path, length: 2)
G1 X6.624 Y-9.394 Z6.500 F4800.000 A503.228 (d: 18.788)
(connection path, length: 2)
G1 X2.520 Y-9.394 Z6.500 F4800.000 A503.387 (d: 4.104)
(infill path, length: 2)
G1 X2.520 Y9.394 Z6.500 F4800.000 A504.116 (d: 18.788)
(connection path, length: 2)
G1 X-1.584 Y9.394 Z6.500 F4800.000 A504.276 (d: 4.104)
(infill path, length: 2)
G1 X-1.584 Y-9.394 Z6.500 F4800.000 A505.005 (d: 18.788)
(connection path, length: 2)
G1 X-5.688 Y-9.394 Z6.500 F4800.000 A505.164 (d: 4.104)
(infill path, length: 2)
G1 X-5.688 Y9.394 Z6.500 F4800.000 A505.894 (d: 18.788)
G1 F1200.000 A504.894 (snort)


(Slice 22, 1 Extruder) 
(Layer Height: 	0.270)
(Layer Width: 	0.432)
G1 Z6.500 F1380.000 (move Z)
(insets: 0)
(infills: 0)
(inset path, length: 5)
G1 X9.783 Y9.783 Z6.770 F6000.000 (move into position)
G1 F1200.000 A505.894 (squirt)
G1 X9.783 Y-9.783 Z6.770 F2100.000 A506.653 (d: 19.566)
G1 X-9.783 Y-9.783 Z6.770 F2100.000 A507.413 (d: 19.566)
G1 X-9.783 Y9.783 Z6.770 F2100.000 A508.173 (d: 19.566)
G1 X9.783 Y9.783 Z6.770 F2100.000 A508.932 (d: 19.566)
(connection path, length: 2)
G1 X9.394 Y9.394 Z6.770 F4800.000 A508.953 (d: 0.550129)
(inset path, length: 5)
G1 X9.394 Y-9.394 Z6.770 F4800.000 A509.683 (d: 18.788)
G1 X-9.394 Y-9.394 Z6.770 F4800.000 A510.412 (d: 18.788)
G1 X-9.394 Y9.394 Z6.770 F4800.000 A511.142 (d: 18.788)
G1 X9.394 Y9.394 Z6.770 F4800.000 A511.871 (d: 18.788)
(connection path, length: 2)
G1 X9.394 Y6.624 Z6.770 F4800.000 A511.978 (d: 2.77)
(infill path, length: 2)
G1 X-9.394 Y6.624 Z6.770 F4800.000 A512.708 (d: 18.788)
(connection path, length: 2)
G1 X-9.394 Y2.520 Z6.770 F4800.000 A512.867 (d: 4.104)
(infill path, length: 2)
G1 X9.394 Y2.520 Z6.770 F4800.000 A513.597 (d: 18.788)
(connection path, length: 2)
G1 X9.394 Y-1.584 Z6.770 F4800.000 A513.756 (d: 4.104)
(infill path, length: 2)
G1 X-9.394 Y-1.584 Z6.770 F4800.000 A514.485 (d: 18.788)
(connection path, length: 2)
G1 X-9.394 Y-5.688 Z6.770 F4800.000 A514.645 (d: 4.104)
(infill path, length: 2)
G1 X9.394 Y-5.688 Z6.770 F4800.000 A515.374 (d: 18.788)
G1 F1200.000 A514.374 (snort)


(Slice 23, 1 Extruder) 
(Layer Height: 	0.270)
(Layer Width: 	0.432)
G1 Z6.770 F1380.000 (move Z)
(insets: 0)
(infills: 0)
(inset path, length: 5)
G1 X-9.394 Y9.394 Z7.040 F6000.000 (move into position)
G1 F1200.000 A515.374 (squirt)
G1 X-9.394 Y-9.394 Z7.040 F4800.000 A516.103 (d: 18.788)
G1 X9.394 Y-9.394 Z7.040 F4800.000 A516.833 (d: 18.788)
G1 X9.394 Y9.394 Z7.040 F4800.000 A517.562 (d: 18.788)
G1 X-9.394 Y9.394 Z7.040 F4800.000 A518.291 (d: 18.788)
(connection path, length: 2)
G1 X9.783 Y9.783 Z7.040 F4800.000 A519.036 (d: 19.1809)
(inset path, length: 5)
G1 X-9.783 Y9.783 Z7.040 F2100.000 A519.796 (d: 19.566)
G1 X-9.783 Y-9.783 Z7.040 F2100.000 A520.555 (d: 19.566)
G1 X9.783 Y-9.783 Z7.040 F2100.000 A521.315 (d: 19.566)
G1 X9.783 Y9.783 Z7.040 F2100.000 A522.074 (d: 19.566)
(connection path, length: 2)
G1 X6.624 Y9.394 Z7.040 F4800.000 A522.198 (d: 3.18286)
(infill path, length: 2)
G1 X6.624 Y-9.394 Z7.040 F4800.000 A522.927 (d: 18.788)
(connection path, length: 2)
G1 X2.520 Y-9.394 Z7.040 F4800.000 A523.087 (d: 4.104)
(infill path, length: 2)
G1 X2.520 Y9.394 Z7.040 F4800.000 A523.816 (d: 18.788)
(connection path, length: 2)
G1 X-1.584 Y9.394 Z7.040 F4800.000 A523.975 (d: 4.104)
(infill path, length: 2)
G1 X-1.584 Y-9.394 Z7.040 F4800.000 A524.705 (d: 18.788)
(connection path, length: 2)
G1 X-5.688 Y-9.394 Z7.040 F4800.000 A524.864 (d: 4.104)
(infill path, length: 2)
G1 X-5.688 Y9.394 Z7.040 F4800.000 A525.593 (d: 18.788)
G1 F1200.000 A524.593 (snort)


(Slice 24, 1 Extruder) 
(Layer Height: 	0.270)
(Layer Width: 	0.432)
G1 Z7.040 F1380.000 (move Z)
(insets: 0)
(infills: 0)
(inset path, length: 5)
G1 X9.394 Y-9.394 Z7.310 F6000.000 (move into position)
G1 F1200.000 A525.593 (squirt)
G1 X9.394 Y9.394 Z7.310 F4800.000 A526.323 (d: 18.788)
G1 X-9.394 Y9.394 Z7.310 F4800.000 A527.052 (d: 18.788)
G1 X-9.394 Y-9.394 Z7.310 F4800.000 A527.781 (d: 18.788)
G1 X9.394 Y-9.394 Z7.310 F4800.000 A528.511 (d: 18.788)
(connection path, length: 2)
G1 X9.783 Y9.783 Z7.310 F4800.000 A529.256 (d: 19.1809)
(inset path, length: 5)
G1 X9.783 Y-9.783 Z7.310 F2100.000 A530.015 (d: 19.566)
G1 X-9.783 Y-9.783 Z7.310 F2100.000 A530.775 (d: 19.566)
G1 X-9.783 Y9.783 Z7.310 F2100.000 A531.534 (d: 19.566)
G1 X9.783 Y9.783 Z7.310 F2100.000 A532.294 (d: 19.566)
(connection path, length: 2)
G1 X9.394 Y6.624 Z7.310 F4800.000 A532.417 (d: 3.18286)
(infill path, length: 2)
G1 X-9.394 Y6.624 Z7.310 F4800.000 A533.147 (d: 18.788)
(connection path, length: 2)
G1 X-9.394 Y2.520 Z7.310 F4800.000 A533.306 (d: 4.104)
(infill path, length: 2)
G1 X9.394 Y2.520 Z7.310 F4800.000 A534.035 (d: 18.788)
(connection path, length: 2)
G1 X9.394 Y-1.584 Z7.310 F4800.000 A534.195 (d: 4.104)
(infill path, length: 2)
G1 X-9.394 Y-1.584 Z7.310 F4800.000 A534.924 (d: 18.788)
(connection path, length: 2)
G1 X-9.394 Y-5.688 Z7.310 F4800.000 A535.083 (d: 4.104)
(infill path, length: 2)
G1 X9.394 Y-5.688 Z7.310 F4800.000 A535.813 (d: 18.788)
G1 F1200.000 A534.813 (snort)


(Slice 25, 1 Extruder) 
(Layer Height: 	0.270)
(Layer Width: 	0.432)
G1 Z7.310 F1380.000 (move Z)
(insets: 0)
(infills: 0)
(inset path, length: 5)
G1 X-9.394 Y9.394 Z7.580 F6000.000 (move into position)
G1 F1200.000 A535.813 (squirt)
G1 X-9.394 Y-9.394 Z7.580 F4800.000 A536.542 (d: 18.788)
G1 X9.394 Y-9.394 Z7.580 F4800.000 A537.272 (d: 18.788)
G1 X9.394 Y9.394 Z7.580 F4800.000 A538.001 (d: 18.788)
G1 X-9.394 Y9.394 Z7.580 F4800.000 A538.730 (d: 18.788)
(connection path, length: 2)
G1 X9.783 Y9.783 Z7.580 F4800.000 A539.475 (d: 19.1809)
(inset path, length: 5)
G1 X-9.783 Y9.783 Z7.580 F2100.000 A540.235 (d: 19.566)
G1 X-9.783 Y-9.783 Z7.580 F2100.000 A540.994 (d: 19.566)
G1 X9.783 Y-9.783 Z7.580 F2100.000 A541.754 (d: 19.566)
G1 X9.783 Y9.783 Z7.580 F2100.000 A542.513 (d: 19.566)
(connection path, length: 2)
G1 X6.624 Y9.394 Z7.580 F4800.000 A542.637 (d: 3.18286)
(infill path, length: 2)
G1 X6.624 Y-9.394 Z7.580 F4800.000 A543.366 (d: 18.788)
(connection path, length: 2)
G1 X2.520 Y-9.394 Z7.580 F4800.000 A543.526 (d: 4.104)
(infill path, length: 2)
G1 X2.520 Y9.394 Z7.580 F4800.000 A544.255 (d: 18.788)
(connection path, length: 2)
G1 X-1.584 Y9.394 Z7.580 F4800.000 A544.414 (d: 4.104)
(infill path, length: 2)
G1 X-1.584 Y-9.394 Z7.580 F4800.000 A545.144 (d: 18.788)
(connection path, length: 2)
G1 X-5.688 Y-9.394 Z7.580 F4800.000 A545.303 (d: 4.104)
(infill path, length: 2)
G1 X-5.688 Y9.394 Z7.580 F4800.000 A546.032 (d: 18.788)
G1 F1200.000 A545.032 (snort)


(Slice 26, 1 Extruder) 
(Layer Height: 	0.270)
(Layer Width: 	0.432)
G1 Z7.580 F1380.000 (move Z)
(insets: 0)
(infills: 0)
(inset path, length: 5)
G1 X-9.394 Y9.394 Z7.850 F6000.000 (move into position)
G1 F1200.000 A546.032 (squirt)
G1 X-9.394 Y-9.394 Z7.850 F4800.000 A546.762 (d: 18.788)
G1 X9.394 Y-9.394 Z7.850 F4800.000 A547.491 (d: 18.788)
G1 X9.394 Y9.394 Z7.850 F4800.000 A548.220 (d: 18.788)
G1 X-9.394 Y9.394 Z7.850 F4800.000 A548.950 (d: 18.788)
(connection path, length: 2)
G1 X9.783 Y9.783 Z7.850 F4800.000 A549.694 (d: 19.1809)
(inset path, length: 5)
G1 X-9.783 Y9.783 Z7.850 F2100.000 A550.454 (d: 19.566)
G1 X-9.783 Y-9.783 Z7.850 F2100.000 A551.214 (d: 19.566)
G1 X9.783 Y-9.783 Z7.850 F2100.000 A551.973 (d: 19.566)
G1 X9.783 Y9.783 Z7.850 F2100.000 A552.733 (d: 19.566)
(connection path, length: 2)
G1 X9.394 Y6.624 Z7.850 F4800.000 A552.856 (d: 3.18286)
(infill path, length: 2)
G1 X-9.394 Y6.624 Z7.850 F4800.000 A553.586 (d: 18.788)
(connection path, length: 2)
G1 X-9.394 Y2.520 Z7.850 F4800.000 A553.745 (d: 4.104)
(infill path, length: 2)
G1 X9.394 Y2.520 Z7.850 F4800.000 A554.474 (d: 18.788)
(connection path, length: 2)
G1 X9.394 Y-1.584 Z7.850 F4800.000 A554.634 (d: 4.104)
(infill path, length: 2)
G1 X-9.394 Y-1.584 Z7.850 F4800.000 A555.363 (d: 18.788)
(connection path, length: 2)
G1 X-9.394 Y-5.688 Z7.850 F4800.000 A555.522 (d: 4.104)
(infill path, length: 2)
G1 X9.394 Y-5.688 Z7.850 F4800.000 A556.252 (d: 18.788)
G1 F1200.000 A555.252 (snort)


(Slice 27, 1 Extruder) 
(Layer Height: 	0.270)
(Layer Width: 	0.432)
G1 Z7.850 F1380.000 (move Z)
(insets: 0)
(infills: 0)
(inset path, length: 5)
G1 X9.394 Y-9.394 Z8.120 F6000.000 (move into position)
G1 F1200.000 A556.252 (squirt)
G1 X9.394 Y9.394 Z8.120 F4800.000 A556.981 (d: 18.788)
G1 X-9.394 Y9.394 Z8.120 F4800.000 A557.710 (d: 18.788)
G1 X-9.394 Y-9.394 Z8.120 F4800.000 A558.440 (d: 18.788)
G1 X9.394 Y-9.394 Z8.120 F4800.000 A559.169 (d: 18.788)
(connection path, length: 2)
G1 X9.783 Y9.783 Z8.120 F4800.000 A559.914 (d: 19.1809)
(inset path, length: 5)
G1 X9.783 Y-9.783 Z8.120 F2100.000 A560.673 (d: 19.566)
G1 X-9.783 Y-9.783 Z8.120 F2100.000 A561.433 (d: 19.566)
G1 X-9.783 Y9.783 Z8.120 F2100.000 A562.193 (d: 19.566)
G1 X9.783 Y9.783 Z8.120 F2100.000 A562.952 (d: 19.566)
(connection path, length: 2)
G1 X6.624 Y9.394 Z8.120 F4800.000 A563.076 (d: 3.18286)
(infill path, length: 2)
G1 X6.624 Y-9.394 Z8.120 F4800.000 A563.805 (d: 18.788)
(connection path, length: 2)
G1 X2.520 Y-9.394 Z8.120 F4800.000 A563.964 (d: 4.104)
(infill path, length: 2)
G1 X2.520 Y9.394 Z8.120 F4800.000 A564.694 (d: 18.788)
(connection path, length: 2)
G1 X-1.584 Y9.394 Z8.120 F4800.000 A564.853 (d: 4.104)
(infill path, length: 2)
G1 X-1.584 Y-9.394 Z8.120 F4800.000 A565.582 (d: 18.788)
(connection path, length: 2)
G1 X-5.688 Y-9.394 Z8.120 F4800.000 A565.742 (d: 4.104)
(infill path, length: 2)
G1 X-5.688 Y9.394 Z8.120 F4800.000 A566.471 (d: 18.788)
G1 F1200.000 A565.471 (snort)


(Slice 28, 1 Extruder) 
(Layer Height: 	0.270)
(Layer Width: 	0.432)
G1 Z8.120 F1380.000 (move Z)
(insets: 0)
(infills: 0)
(inset path, length: 5)
G1 X9.394 Y9.394 Z8.390 F6000.000 (move into position)
G1 F1200.000 A566.471 (squirt)
G1 X9.394 Y-9.394 Z8.390 F4800.000 A567.201 (d: 18.788)
G1 X-9.394 Y-9.394 Z8.390 F4800.000 A567.930 (d: 18.788)
G1 X-9.394 Y9.394 Z8.390 F4800.000 A568.659 (d: 18.788)
G1 X9.394 Y9.394 Z8.390 F4800.000 A569.389 (d: 18.788)
(connection path, length: 2)
G1 X9.783 Y9.783 Z8.390 F4800.000 A569.410 (d: 0.550129)
(inset path, length: 5)
G1 X9.783 Y-9.783 Z8.390 F2100.000 A570.170 (d: 19.566)
G1 X-9.783 Y-9.783 Z8.390 F2100.000 A570.929 (d: 19.566)
G1 X-9.783 Y9.783 Z8.390 F2100.000 A571.689 (d: 19.566)
G1 X9.783 Y9.783 Z8.390 F2100.000 A572.448 (d: 19.566)
(connection path, length: 2)
G1 X9.394 Y6.624 Z8.390 F4800.000 A572.572 (d: 3.18286)
(infill path, length: 2)
G1 X-9.394 Y6.624 Z8.390 F4800.000 A573.301 (d: 18.788)
(connection path, length: 2)
G1 X-9.394 Y2.520 Z8.390 F4800.000 A573.461 (d: 4.104)
(infill path, length: 2)
G1 X9.394 Y2.520 Z8.390 F4800.000 A574.190 (d: 18.788)
(connection path, length: 2)
G1 X9.394 Y-1.584 Z8.390 F4800.000 A574.349 (d: 4.104)
(infill path, length: 2)
G1 X-9.394 Y-1.584 Z8.390 F4800.000 A575.079 (d: 18.788)
(connection path, length: 2)
G1 X-9.394 Y-5.688 Z8.390 F4800.000 A575.238 (d: 4.104)
(infill path, length: 2)
G1 X9.394 Y-5.688 Z8.390 F4800.000 A575.967 (d: 18.788)
G1 F1200.000 A574.967 (snort)


(Slice 29, 1 Extruder) 
(Layer Height: 	0.270)
(Layer Width: 	0.432)
G1 Z8.390 F1380.000 (move Z)
(insets: 0)
(infills: 0)
(inset path, length: 5)
G1 X9.394 Y9.394 Z8.660 F6000.000 (move into position)
G1 F1200.000 A575.967 (squirt)
G1 X9.394 Y-9.394 Z8.660 F4800.000 A576.697 (d: 18.788)
G1 X-9.394 Y-9.394 Z8.660 F4800.000 A577.426 (d: 18.788)
G1 X-9.394 Y9.394 Z8.660 F4800.000 A578.155 (d: 18.788)
G1 X9.394 Y9.394 Z8.660 F4800.000 A578.885 (d: 18.788)
(connection path, length: 2)
G1 X9.783 Y9.783 Z8.660 F4800.000 A578.906 (d: 0.550129)
(inset path, length: 5)
G1 X9.783 Y-9.783 Z8.660 F2100.000 A579.666 (d: 19.566)
G1 X-9.783 Y-9.783 Z8.660 F2100.000 A580.425 (d: 19.566)
G1 X-9.783 Y9.783 Z8.660 F2100.000 A581.185 (d: 19.566)
G1 X9.783 Y9.783 Z8.660 F2100.000 A581.945 (d: 19.566)
(connection path, length: 2)
G1 X6.624 Y9.394 Z8.660 F4800.000 A582.068 (d: 3.18286)
(infill path, length: 2)
G1 X6.624 Y-9.394 Z8.660 F4800.000 A582.797 (d: 18.788)
(connection path, length: 2)
G1 X2.520 Y-9.394 Z8.660 F4800.000 A582.957 (d: 4.104)
(infill path, length: 2)
G1 X2.520 Y9.394 Z8.660 F4800.000 A583.686 (d: 18.788)
(connection path, length: 2)
G1 X-1.584 Y9.394 Z8.660 F4800.000 A583.845 (d: 4.104)
(infill path, length: 2)
G1 X-1.584 Y-9.394 Z8.660 F4800.000 A584.575 (d: 18.788)
(connection path, length: 2)
G1 X-5.688 Y-9.394 Z8.660 F4800.000 A584.734 (d: 4.104)
(infill path, length: 2)
G1 X-5.688 Y9.394 Z8.660 F4800.000 A585.464 (d: 18.788)
G1 F1200.000 A584.464 (snort)


(Slice 30, 1 Extruder) 
(Layer Height: 	0.270)
(Layer Width: 	0.432)
G1 Z8.660 F1380.000 (move Z)
(insets: 0)
(infills: 0)
(inset path, length: 5)
G1 X-9.394 Y9.394 Z8.930 F6000.000 (move into position)
G1 F1200.000 A585.464 (squirt)
G1 X-9.394 Y-9.394 Z8.930 F4800.000 A586.193 (d: 18.788)
G1 X9.394 Y-9.394 Z8.930 F4800.000 A586.922 (d: 18.788)
G1 X9.394 Y9.394 Z8.930 F4800.000 A587.652 (d: 18.788)
G1 X-9.394 Y9.394 Z8.930 F4800.000 A588.381 (d: 18.788)
(connection path, length: 2)
G1 X9.783 Y9.783 Z8.930 F4800.000 A589.126 (d: 19.1809)
(inset path, length: 5)
G1 X-9.783 Y9.783 Z8.930 F2100.000 A589.885 (d: 19.566)
G1 X-9.783 Y-9.783 Z8.930 F2100.000 A590.645 (d: 19.566)
G1 X9.783 Y-9.783 Z8.930 F2100.000 A591.404 (d: 19.566)
G1 X9.783 Y9.783 Z8.930 F2100.000 A592.164 (d: 19.566)
(connection path, length: 2)
G1 X9.394 Y6.624 Z8.930 F4800.000 A592.288 (d: 3.18286)
(infill path, length: 2)
G1 X-9.394 Y6.624 Z8.930 F4800.000 A593.017 (d: 18.788)
(connection path, length: 2)
G1 X-9.394 Y2.520 Z8.930 F4800.000 A593.176 (d: 4.104)
(infill path, length: 2)
G1 X9.394 Y2.520 Z8.930 F4800.000 A593.906 (d: 18.788)
(connection path, length: 2)
G1 X9.394 Y-1.584 Z8.930 F4800.000 A594.065 (d: 4.104)
(infill path, length: 2)
G1 X-9.394 Y-1.584 Z8.930 F4800.000 A594.794 (d: 18.788)
(connection path, length: 2)
G1 X-9.394 Y-5.688 Z8.930 F4800.000 A594.954 (d: 4.104)
(infill path, length: 2)
G1 X9.394 Y-5.688 Z8.930 F4800.000 A595.683 (d: 18.788)
G1 F1200.000 A594.683 (snort)


(Slice 31, 1 Extruder) 
(Layer Height: 	0.270)
(Layer Width: 	0.432)
G1 Z8.930 F1380.000 (move Z)
(insets: 0)
(infills: 0)
(inset path, length: 5)
G1 X9.394 Y9.394 Z9.200 F6000.000 (move into position)
G1 F1200.000 A595.683 (squirt)
G1 X9.394 Y-9.394 Z9.200 F4800.000 A596.412 (d: 18.788)
G1 X-9.394 Y-9.394 Z9.200 F4800.000 A597.142 (d: 18.788)
G1 X-9.394 Y9.394 Z9.200 F4800.000 A597.871 (d: 18.788)
G1 X9.394 Y9.394 Z9.200 F4800.000 A598.600 (d: 18.788)
(connection path, length: 2)
G1 X9.783 Y9.783 Z9.200 F4800.000 A598.622 (d: 0.550129)
(inset path, length: 5)
G1 X9.783 Y-9.783 Z9.200 F2100.000 A599.381 (d: 19.566)
G1 X-9.783 Y-9.783 Z9.200 F2100.000 A600.141 (d: 19.566)
G1 X-9.783 Y9.783 Z9.200 F2100.000 A600.901 (d: 19.566)
G1 X9.783 Y9.783 Z9.200 F2100.000 A601.660 (d: 19.566)
(connection path, length: 2)
G1 X6.624 Y9.394 Z9.200 F4800.000 A601.784 (d: 3.18286)
(infill path, length: 2)
G1 X6.624 Y-9.394 Z9.200 F4800.000 A602.513 (d: 18.788)
(connection path, length: 2)
G1 X2.520 Y-9.394 Z9.200 F4800.000 A602.672 (d: 4.104)
(infill path, length: 2)
G1 X2.520 Y9.394 Z9.200 F4800.000 A603.402 (d: 18.788)
(connection path, length: 2)
G1 X-1.584 Y9.394 Z9.200 F4800.000 A603.561 (d: 4.104)
(infill path, length: 2)
G1 X-1.584 Y-9.394 Z9.200 F4800.000 A604.290 (d: 18.788)
(connection path, length: 2)
G1 X-5.688 Y-9.394 Z9.200 F4800.000 A604.450 (d: 4.104)
(infill path, length: 2)
G1 X-5.688 Y9.394 Z9.200 F4800.000 A605.179 (d: 18.788)
G1 F1200.000 A604.179 (snort)


(Slice 32, 1 Extruder) 
(Layer Height: 	0.270)
(Layer Width: 	0.432)
G1 Z9.200 F1380.000 (move Z)
(insets: 0)
(infills: 0)
(inset path, length: 5)
G1 X9.394 Y9.394 Z9.470 F6000.000 (move into position)
G1 F1200.000 A605.179 (squirt)
G1 X9.394 Y-9.394 Z9.470 F4800.000 A605.909 (d: 18.788)
G1 X-9.394 Y-9.394 Z9.470 F4800.000 A606.638 (d: 18.788)
G1 X-9.394 Y9.394 Z9.470 F4800.000 A607.367 (d: 18.788)
G1 X9.394 Y9.394 Z9.470 F4800.000 A608.097 (d: 18.788)
(connection path, length: 2)
G1 X9.783 Y9.783 Z9.470 F4800.000 A608.118 (d: 0.550129)
(inset path, length: 5)
G1 X9.783 Y-9.783 Z9.470 F2100.000 A608.878 (d: 19.566)
G1 X-9.783 Y-9.783 Z9.470 F2100.000 A609.637 (d: 19.566)
G1 X-9.783 Y9.783 Z9.470 F2100.000 A610.397 (d: 19.566)
G1 X9.783 Y9.783 Z9.470 F2100.000 A611.156 (d: 19.566)
(connection path, length: 2)
G1 X9.394 Y6.624 Z9.470 F4800.000 A611.280 (d: 3.18286)
(infill path, length: 2)
G1 X-9.394 Y6.624 Z9.470 F4800.000 A612.009 (d: 18.788)
(connection path, length: 2)
G1 X-9.394 Y2.520 Z9.470 F4800.000 A612.169 (d: 4.104)
(infill path, length: 2)
G1 X9.394 Y2.520 Z9.470 F4800.000 A612.898 (d: 18.788)
(connection path, length: 2)
G1 X9.394 Y-1.584 Z9.470 F4800.000 A613.057 (d: 4.104)
(infill path, length: 2)
G1 X-9.394 Y-1.584 Z9.470 F4800.000 A613.787 (d: 18.788)
(connection path, length: 2)
G1 X-9.394 Y-5.688 Z9.470 F4800.000 A613.946 (d: 4.104)
(infill path, length: 2)
G1 X9.394 Y-5.688 Z9.470 F4800.000 A614.675 (d: 18.788)
G1 F1200.000 A613.675 (snort)


(Slice 33, 1 Extruder) 
(Layer Height: 	0.270)
(Layer Width: 	0.432)
G1 Z9.470 F1380.000 (move Z)
(insets: 0)
(infills: 0)
(inset path, length: 5)
G1 X9.394 Y9.394 Z9.740 F6000.000 (move into position)
G1 F1200.000 A614.675 (squirt)
G1 X9.394 Y-9.395 Z9.740 F4800.000 A615.405 (d: 18.789)
G1 X-9.394 Y-9.394 Z9.740 F4800.000 A616.134 (d: 18.788)
G1 X-9.394 Y9.394 Z9.740 F4800.000 A616.864 (d: 18.788)
G1 X9.394 Y9.394 Z9.740 F4800.000 A617.593 (d: 18.788)
(connection path, length: 2)
G1 X9.783 Y9.783 Z9.740 F4800.000 A617.614 (d: 0.550129)
(inset path, length: 5)
G1 X9.783 Y-9.784 Z9.740 F2100.000 A618.374 (d: 19.567)
G1 X-9.783 Y-9.783 Z9.740 F2100.000 A619.133 (d: 19.566)
G1 X-9.783 Y9.783 Z9.740 F2100.000 A619.893 (d: 19.566)
G1 X9.783 Y9.783 Z9.740 F2100.000 A620.653 (d: 19.566)
(connection path, length: 2)
G1 X9.086 Y9.394 Z9.740 F4800.000 A620.684 (d: 0.797854)
(infill path, length: 2)
G1 X9.086 Y-9.395 Z9.740 F4800.000 A621.413 (d: 18.789)
(connection path, length: 2)
G1 X8.676 Y-9.395 Z9.740 F4800.000 A621.429 (d: 0.4104)
(infill path, length: 2)
G1 X8.676 Y9.394 Z9.740 F4800.000 A622.158 (d: 18.789)
(connection path, length: 2)
G1 X8.266 Y9.394 Z9.740 F4800.000 A622.174 (d: 0.4104)
(infill path, length: 2)
G1 X8.266 Y-9.395 Z9.740 F4800.000 A622.904 (d: 18.7889)
(connection path, length: 2)
G1 X7.855 Y-9.395 Z9.740 F4800.000 A622.920 (d: 0.4104)
(infill path, length: 2)
G1 X7.855 Y9.394 Z9.740 F4800.000 A623.649 (d: 18.7889)
(connection path, length: 2)
G1 X7.445 Y9.394 Z9.740 F4800.000 A623.665 (d: 0.4104)
(infill path, length: 2)
G1 X7.445 Y-9.395 Z9.740 F4800.000 A624.394 (d: 18.7889)
(connection path, length: 2)
G1 X7.034 Y-9.395 Z9.740 F4800.000 A624.410 (d: 0.4104)
(infill path, length: 2)
G1 X7.034 Y9.394 Z9.740 F4800.000 A625.140 (d: 18.7889)
(connection path, length: 2)
G1 X6.624 Y9.394 Z9.740 F4800.000 A625.156 (d: 0.4104)
(infill path, length: 2)
G1 X6.624 Y-9.395 Z9.740 F4800.000 A625.885 (d: 18.7888)
(connection path, length: 2)
G1 X6.214 Y-9.395 Z9.740 F4800.000 A625.901 (d: 0.4104)
(infill path, length: 2)
G1 X6.214 Y9.394 Z9.740 F4800.000 A626.630 (d: 18.7888)
(connection path, length: 2)
G1 X5.803 Y9.394 Z9.740 F4800.000 A626.646 (d: 0.4104)
(infill path, length: 2)
G1 X5.803 Y-9.395 Z9.740 F4800.000 A627.376 (d: 18.7888)
(connection path, length: 2)
G1 X5.393 Y-9.395 Z9.740 F4800.000 A627.392 (d: 0.4104)
(infill path, length: 2)
G1 X5.393 Y9.394 Z9.740 F4800.000 A628.121 (d: 18.7888)
(connection path, length: 2)
G1 X4.982 Y9.394 Z9.740 F4800.000 A628.137 (d: 0.4104)
(infill path, length: 2)
G1 X4.982 Y-9.395 Z9.740 F4800.000 A628.866 (d: 18.7887)
(connection path, length: 2)
G1 X4.572 Y-9.395 Z9.740 F4800.000 A628.882 (d: 0.4104)
(infill path, length: 2)
G1 X4.572 Y9.394 Z9.740 F4800.000 A629.612 (d: 18.7887)
(connection path, length: 2)
G1 X4.162 Y9.394 Z9.740 F4800.000 A629.628 (d: 0.4104)
(infill path, length: 2)
G1 X4.162 Y-9.395 Z9.740 F4800.000 A630.357 (d: 18.7887)
(connection path, length: 2)
G1 X3.751 Y-9.395 Z9.740 F4800.000 A630.373 (d: 0.4104)
(infill path, length: 2)
G1 X3.751 Y9.394 Z9.740 F4800.000 A631.102 (d: 18.7887)
(connection path, length: 2)
G1 X3.341 Y9.394 Z9.740 F4800.000 A631.118 (d: 0.4104)
(infill path, length: 2)
G1 X3.341 Y-9.395 Z9.740 F4800.000 A631.848 (d: 18.7886)
(connection path, length: 2)
G1 X2.930 Y-9.395 Z9.740 F4800.000 A631.864 (d: 0.4104)
(infill path, length: 2)
G1 X2.930 Y9.394 Z9.740 F4800.000 A632.593 (d: 18.7886)
(connection path, length: 2)
G1 X2.520 Y9.394 Z9.740 F4800.000 A632.609 (d: 0.4104)
(infill path, length: 2)
G1 X2.520 Y-9.395 Z9.740 F4800.000 A633.338 (d: 18.7886)
(connection path, length: 2)
G1 X2.110 Y-9.395 Z9.740 F4800.000 A633.354 (d: 0.4104)
(infill path, length: 2)
G1 X2.110 Y9.394 Z9.740 F4800.000 A634.084 (d: 18.7886)
(connection path, length: 2)
G1 X1.699 Y9.394 Z9.740 F4800.000 A634.100 (d: 0.4104)
(infill path, length: 2)
G1 X1.699 Y-9.395 Z9.740 F4800.000 A634.829 (d: 18.7885)
(connection path, length: 2)
G1 X1.289 Y-9.395 Z9.740 F4800.000 A634.845 (d: 0.4104)
(infill path, length: 2)
G1 X1.289 Y9.394 Z9.740 F4800.000 A635.574 (d: 18.7885)
(connection path, length: 2)
G1 X0.878 Y9.394 Z9.740 F4800.000 A635.590 (d: 0.4104)
(infill path, length: 2)
G1 X0.878 Y-9.394 Z9.740 F4800.000 A636.320 (d: 18.7885)
(connection path, length: 2)
G1 X0.468 Y-9.394 Z9.740 F4800.000 A636.336 (d: 0.4104)
(infill path, length: 2)
G1 X0.468 Y9.394 Z9.740 F4800.000 A637.065 (d: 18.7885)
(connection path, length: 2)
G1 X0.058 Y9.394 Z9.740 F4800.000 A637.081 (d: 0.4104)
(infill path, length: 2)
G1 X0.058 Y-9.394 Z9.740 F4800.000 A637.810 (d: 18.7884)
(connection path, length: 2)
G1 X-0.353 Y-9.394 Z9.740 F4800.000 A637.826 (d: 0.4104)
(infill path, length: 2)
G1 X-0.353 Y9.394 Z9.740 F4800.000 A638.556 (d: 18.7884)
(connection path, length: 2)
G1 X-0.763 Y9.394 Z9.740 F4800.000 A638.572 (d: 0.4104)
(infill path, length: 2)
G1 X-0.763 Y-9.394 Z9.740 F4800.000 A639.301 (d: 18.7884)
(connection path, length: 2)
G1 X-1.174 Y-9.394 Z9.740 F4800.000 A639.317 (d: 0.4104)
(infill path, length: 2)
G1 X-1.174 Y9.394 Z9.740 F4800.000 A640.046 (d: 18.7884)
(connection path, length: 2)
G1 X-1.584 Y9.394 Z9.740 F4800.000 A640.062 (d: 0.4104)
(infill path, length: 2)
G1 X-1.584 Y-9.394 Z9.740 F4800.000 A640.792 (d: 18.7883)
(connection path, length: 2)
G1 X-1.994 Y-9.394 Z9.740 F4800.000 A640.808 (d: 0.4104)
(infill path, length: 2)
G1 X-1.994 Y9.394 Z9.740 F4800.000 A641.537 (d: 18.7883)
(connection path, length: 2)
G1 X-2.405 Y9.394 Z9.740 F4800.000 A641.553 (d: 0.4104)
(infill path, length: 2)
G1 X-2.405 Y-9.394 Z9.740 F4800.000 A642.282 (d: 18.7883)
(connection path, length: 2)
G1 X-2.815 Y-9.394 Z9.740 F4800.000 A642.298 (d: 0.4104)
(infill path, length: 2)
G1 X-2.815 Y9.394 Z9.740 F4800.000 A643.028 (d: 18.7883)
(connection path, length: 2)
G1 X-3.226 Y9.394 Z9.740 F4800.000 A643.043 (d: 0.4104)
(infill path, length: 2)
G1 X-3.226 Y-9.394 Z9.740 F4800.000 A643.773 (d: 18.7882)
(connection path, length: 2)
G1 X-3.636 Y-9.394 Z9.740 F4800.000 A643.789 (d: 0.4104)
(infill path, length: 2)
G1 X-3.636 Y9.394 Z9.740 F4800.000 A644.518 (d: 18.7882)
(connection path, length: 2)
G1 X-4.046 Y9.394 Z9.740 F4800.000 A644.534 (d: 0.4104)
(infill path, length: 2)
G1 X-4.046 Y-9.394 Z9.740 F4800.000 A645.263 (d: 18.7882)
(connection path, length: 2)
G1 X-4.457 Y-9.394 Z9.740 F4800.000 A645.279 (d: 0.4104)
(infill path, length: 2)
G1 X-4.457 Y9.394 Z9.740 F4800.000 A646.009 (d: 18.7882)
(connection path, length: 2)
